;FLAVOR:Marlin
;TIME:2269
;Filament used: 0.721637m
;Layer height: 0.3
;MINX:202.285
;MINY:249.095
;MINZ:0.3
;MAXX:284.485
;MAXY:290.295
;MAXZ:3.9
;Generated with Cura_SteamEngine 4.4.1
M140 S60
M105
M190 S60
M104 S200
M105
M109 S200
M82 ;absolute extrusion mode
G28 ;Home
G1 Z5.0 F6000 ;Move the platform down 15mm
;Prime the extruder
G92 E0
G1 F200 E5
G92 E0
G92 E0
G92 E0
G1 F1500 E-1
;LAYER_COUNT:13
;LAYER:0
M107
G1 F600 Z1.3
G0 F3600 X203.679 Y249.866 Z1.3
;TYPE:SKIRT
G1 F600 Z0.3
G1 F1500 E0
G1 F900 X204.126 Y249.568 E0.01011
G1 X204.611 Y249.34 E0.02019
G1 X205.125 Y249.187 E0.03027
G1 X205.793 Y249.105 E0.04293
G1 X206.114 Y249.096 E0.04897
G1 X206.215 Y249.095 E0.05087
G1 X280.23 Y249.095 E1.44314
G1 X280.928 Y249.105 E1.45627
G1 X281.462 Y249.153 E1.46635
G1 X281.983 Y249.279 E1.47644
G1 X282.48 Y249.482 E1.48654
G1 X282.941 Y249.756 E1.49662
G1 X283.356 Y250.095 E1.5067
G1 X283.716 Y250.493 E1.5168
G1 X284.013 Y250.939 E1.52688
G1 X284.241 Y251.425 E1.53698
G1 X284.393 Y251.939 E1.54706
G1 X284.475 Y252.604 E1.55966
G1 X284.484 Y252.924 E1.56568
G1 X284.485 Y253.025 E1.56758
G1 X284.485 Y286.004 E2.18794
G1 X284.476 Y286.731 E2.20161
G1 X284.429 Y287.265 E2.2117
G1 X284.304 Y287.786 E2.22178
G1 X284.102 Y288.283 E2.23187
G1 X283.829 Y288.745 E2.24196
G1 X283.491 Y289.161 E2.25204
G1 X283.094 Y289.522 E2.26214
G1 X282.648 Y289.82 E2.27223
G1 X282.163 Y290.048 E2.28231
G1 X281.649 Y290.202 E2.2924
G1 X280.977 Y290.285 E2.30514
G1 X280.656 Y290.294 E2.31118
G1 X280.555 Y290.295 E2.31308
G1 X206.546 Y290.295 E3.70523
G1 X205.848 Y290.286 E3.71836
G1 X205.313 Y290.239 E3.72846
G1 X204.792 Y290.113 E3.73855
G1 X204.295 Y289.911 E3.74864
G1 X203.834 Y289.638 E3.75872
G1 X203.418 Y289.299 E3.76881
G1 X203.057 Y288.903 E3.77889
G1 X202.759 Y288.457 E3.78898
G1 X202.531 Y287.971 E3.79908
G1 X202.378 Y287.457 E3.80916
G1 X202.295 Y286.783 E3.82194
G1 X202.286 Y286.45 E3.82821
G1 X202.285 Y286.353 E3.83003
G1 X202.285 Y253.32 E4.4514
G1 X202.294 Y252.655 E4.46391
G1 X202.342 Y252.121 E4.47399
G1 X202.468 Y251.6 E4.48408
G1 X202.67 Y251.103 E4.49417
G1 X202.943 Y250.642 E4.50425
G1 X203.282 Y250.226 E4.51434
G1 X203.679 Y249.866 E4.52442
G0 F3600 X204.065 Y250.078
G1 F900 X204.502 Y249.823 E4.53394
G1 X204.973 Y249.639 E4.54345
G1 X205.467 Y249.533 E4.55296
G1 X205.804 Y249.505 E4.55932
G1 X206.125 Y249.496 E4.56536
G1 X206.215 Y249.495 E4.56705
G1 X280.224 Y249.495 E5.9592
G1 X280.922 Y249.505 E5.97233
G1 X281.425 Y249.552 E5.98183
G1 X281.915 Y249.678 E5.99135
G1 X282.379 Y249.88 E6.00087
G1 X282.805 Y250.152 E6.01038
G1 X283.183 Y250.487 E6.01988
G1 X283.503 Y250.878 E6.02938
G1 X283.758 Y251.315 E6.0389
G1 X283.941 Y251.786 E6.04841
G1 X284.048 Y252.28 E6.05791
G1 X284.075 Y252.615 E6.06424
G1 X284.084 Y252.935 E6.07026
G1 X284.085 Y253.025 E6.07195
G1 X284.085 Y285.999 E6.69221
G1 X284.076 Y286.726 E6.70589
G1 X284.03 Y287.229 E6.71539
G1 X283.905 Y287.719 E6.7249
G1 X283.704 Y288.183 E6.73441
G1 X283.433 Y288.61 E6.74392
G1 X283.098 Y288.989 E6.75344
G1 X282.708 Y289.31 E6.76294
G1 X282.272 Y289.566 E6.77245
G1 X281.801 Y289.749 E6.78196
G1 X281.307 Y289.857 E6.79147
G1 X280.966 Y289.885 E6.7979
G1 X280.645 Y289.894 E6.80395
G1 X280.555 Y289.895 E6.80564
G1 X206.551 Y289.895 E8.19769
G1 X205.853 Y289.886 E8.21083
G1 X205.349 Y289.839 E8.22035
G1 X204.859 Y289.714 E8.22986
G1 X204.395 Y289.513 E8.23937
G1 X203.969 Y289.242 E8.24887
G1 X203.59 Y288.907 E8.25838
G1 X203.269 Y288.516 E8.2679
G1 X203.014 Y288.08 E8.2774
G1 X202.83 Y287.609 E8.28691
G1 X202.723 Y287.115 E8.29642
G1 X202.695 Y286.772 E8.30289
G1 X202.686 Y286.439 E8.30916
G1 X202.685 Y286.353 E8.31078
G1 X202.685 Y253.326 E8.93203
G1 X202.694 Y252.661 E8.94454
G1 X202.741 Y252.157 E8.95407
G1 X202.867 Y251.668 E8.96356
G1 X203.068 Y251.204 E8.97308
G1 X203.339 Y250.777 E8.98259
G1 X203.674 Y250.399 E8.99209
G1 X204.065 Y250.078 E9.00161
G1 F1500 E8.00161
G1 F600 Z1.3
;MESH:servo_holder_body.stl
G0 F3600 X206.552 Y254.162 Z1.3
;TYPE:WALL-INNER
G1 F600 Z0.3
G1 F1500 E9.00161
G1 F900 X206.485 Y254.33 E9.00501
G1 X206.485 Y254.162 E9.00522
G1 X206.485 Y253.722 E9.0135
G1 X206.485 Y253.72 E9.01354
G1 X206.485 Y253.295 E9.02153
G1 X206.864 Y253.295 E9.02866
G1 X207.316 Y253.295 E9.03716
G1 X207.524 Y253.295 E9.04107
G1 X207.316 Y253.383 E9.04175
G1 X206.96 Y253.662 E9.04713
G1 X206.884 Y253.721 E9.04894
G1 X206.883 Y253.722 E9.04896
G1 X206.552 Y254.162 E9.05561
G0 F3600 X206.53 Y255.016
G0 X206.552 Y283.162
G1 F900 X206.485 Y283.33 E9.05902
G1 X206.485 Y283.162 E9.05923
G1 X206.485 Y282.722 E9.0675
G1 X206.485 Y282.72 E9.06754
G1 X206.485 Y256.716 E9.55669
G1 X206.485 Y256.264 E9.56519
G1 X206.485 Y256.056 E9.56911
G1 X206.573 Y256.264 E9.56978
G1 X206.852 Y256.62 E9.57516
G1 X206.912 Y256.697 E9.57699
G1 X207.352 Y257.028 E9.58735
G1 X207.862 Y257.232 E9.59768
G1 X208.406 Y257.299 E9.60799
G1 X208.949 Y257.221 E9.61831
G1 X209.455 Y257.006 E9.62865
G1 X209.886 Y256.667 E9.63897
G1 X210.217 Y256.228 E9.64931
G1 X210.422 Y255.718 E9.65965
G1 X210.489 Y255.174 E9.66996
G1 X210.411 Y254.631 E9.68028
G1 X210.196 Y254.125 E9.69062
G1 X209.857 Y253.694 E9.70094
G1 X209.856 Y253.693 E9.70096
G1 X209.418 Y253.363 E9.71128
G1 X209.249 Y253.295 E9.71471
G1 X209.418 Y253.295 E9.71492
G1 X209.856 Y253.295 E9.71949
G1 X209.858 Y253.295 E9.71953
G1 X276.864 Y253.295 E10.97995
G1 X277.316 Y253.295 E10.98845
G1 X277.524 Y253.295 E10.99236
G1 X277.316 Y253.383 E10.99304
G1 X276.96 Y253.662 E10.99841
G1 X276.883 Y253.722 E11.00025
G1 X276.552 Y254.162 E11.0106
G1 X276.348 Y254.672 E11.02094
G1 X276.281 Y255.216 E11.03125
G1 X276.359 Y255.759 E11.04157
G1 X276.573 Y256.264 E11.05188
G1 X276.912 Y256.697 E11.06223
G1 X277.352 Y257.028 E11.07258
G1 X277.862 Y257.232 E11.08292
G1 X278.406 Y257.299 E11.09323
G1 X278.949 Y257.221 E11.10355
G1 X279.455 Y257.006 E11.11389
G1 X279.886 Y256.667 E11.1242
G1 X280.217 Y256.228 E11.13454
G1 X280.285 Y256.059 E11.13797
G1 X280.285 Y256.228 E11.13819
G1 X280.285 Y256.667 E11.14278
G1 X280.285 Y256.668 E11.14279
G1 X280.285 Y282.676 E11.63202
G1 X280.285 Y283.125 E11.64047
G1 X280.285 Y283.334 E11.6444
G1 X280.196 Y283.125 E11.6451
G1 X279.918 Y282.772 E11.65045
G1 X279.856 Y282.693 E11.65234
G1 X279.418 Y282.363 E11.66265
G1 X278.908 Y282.158 E11.67299
G1 X278.364 Y282.091 E11.6833
G1 X277.821 Y282.169 E11.69362
G1 X277.316 Y282.383 E11.70394
G1 X276.883 Y282.722 E11.71428
G1 X276.552 Y283.162 E11.72464
G1 X276.348 Y283.672 E11.73497
G1 X276.281 Y284.216 E11.74528
G1 X276.359 Y284.759 E11.7556
G1 X276.573 Y285.264 E11.76592
G1 X276.911 Y285.696 E11.77624
G1 X276.912 Y285.697 E11.77626
G1 X277.352 Y286.028 E11.78662
G1 X277.519 Y286.095 E11.79
G1 X277.352 Y286.095 E11.79022
G1 X276.912 Y286.095 E11.79479
G1 X276.91 Y286.095 E11.79483
G1 X209.904 Y286.095 E13.05525
G1 X209.455 Y286.095 E13.06369
G1 X209.246 Y286.095 E13.06762
G1 X209.455 Y286.006 E13.06833
G1 X209.808 Y285.729 E13.07366
G1 X209.886 Y285.667 E13.07554
G1 X210.217 Y285.228 E13.08588
G1 X210.422 Y284.718 E13.09622
G1 X210.489 Y284.174 E13.10653
G1 X210.411 Y283.631 E13.11685
G1 X210.196 Y283.125 E13.12719
G1 X209.856 Y282.693 E13.13753
G1 X209.418 Y282.363 E13.14784
G1 X208.908 Y282.158 E13.15818
G1 X208.364 Y282.091 E13.16849
G1 X207.821 Y282.169 E13.17881
G1 X207.316 Y282.383 E13.18913
G1 X206.884 Y282.721 E13.19945
G1 X206.883 Y282.722 E13.19947
G1 X206.552 Y283.162 E13.20613
G0 F3600 X206.52 Y284.383
G0 X206.573 Y285.264
G1 F900 X206.852 Y285.62 E13.21463
G1 X206.911 Y285.696 E13.21644
G1 X206.912 Y285.697 E13.21647
G1 X207.352 Y286.028 E13.22683
G1 X207.519 Y286.095 E13.23021
G1 X207.352 Y286.095 E13.23042
G1 X206.912 Y286.095 E13.235
G1 X206.91 Y286.095 E13.23504
G1 X206.485 Y286.095 E13.24303
G1 X206.485 Y285.716 E13.25016
G1 X206.485 Y285.264 E13.25553
G1 X206.485 Y285.056 E13.25944
G1 X206.573 Y285.264 E13.26012
G0 F3600 X207.433 Y285.887
G0 X208.683 Y286.074
G0 X237.785 Y282.295
G1 F900 X242.118 Y282.295 E13.34163
G1 X242.24 Y282.295 E13.34392
G1 X242.569 Y282.295 E13.35011
G1 X242.612 Y282.295 E13.35092
G1 X242.569 Y282.313
G1 X242.24 Y282.573 E13.35461
G1 X242.167 Y282.67 E13.35658
G1 X241.987 Y282.907 E13.36218
G1 X241.832 Y283.295 E13.37004
G1 X241.78 Y283.711 E13.37793
G1 X241.841 Y284.125 E13.3858
G1 X242.003 Y284.511 E13.39367
G1 X242.263 Y284.84 E13.40156
G1 X242.597 Y285.093 E13.40944
G1 X242.985 Y285.248 E13.4173
G1 X243.401 Y285.3 E13.42519
G1 X243.815 Y285.239 E13.43306
G1 X244.201 Y285.077 E13.44093
G1 X244.53 Y284.817 E13.44882
G1 X244.783 Y284.483 E13.4567
G1 X244.938 Y284.095 E13.46456
G1 X244.99 Y283.679 E13.47245
G1 X244.929 Y283.265 E13.48032
G1 X244.767 Y282.879 E13.4882
G1 X244.6 Y282.668 E13.49326
G1 X244.507 Y282.55 E13.49608
G1 X244.173 Y282.297 E13.50397
G1 X244.506 Y282.297 E13.50564
G1 X244.657 Y282.297 E13.50802
G1 X248.985 Y282.295 E13.58943
G1 X248.985 Y257.095 E14.06345
G1 X244.652 Y257.095 E14.14496
G1 X244.53 Y257.095 E14.14726
G1 X244.201 Y257.095 E14.15344
G1 X244.158 Y257.095 E14.15425
G1 X244.201 Y257.077
G1 X244.53 Y256.817 E14.15795
G1 X244.603 Y256.72 E14.15992
G1 X244.783 Y256.483 E14.16552
G1 X244.938 Y256.095 E14.17338
G1 X244.99 Y255.679 E14.18126
G1 X244.929 Y255.265 E14.18914
G1 X244.767 Y254.879 E14.19701
G1 X244.507 Y254.55 E14.2049
G1 X244.173 Y254.297 E14.21278
G1 X243.785 Y254.142 E14.22064
G1 X243.369 Y254.09 E14.22852
G1 X242.955 Y254.151 E14.2364
G1 X242.569 Y254.313 E14.24427
G1 X242.24 Y254.573 E14.25216
G1 X241.987 Y254.907 E14.26004
G1 X241.832 Y255.295 E14.2679
G1 X241.78 Y255.711 E14.27579
G1 X241.841 Y256.125 E14.28366
G1 X242.003 Y256.511 E14.29153
G1 X242.17 Y256.722 E14.29659
G1 X242.263 Y256.84 E14.29942
G1 X242.597 Y257.093 E14.3073
G1 X242.264 Y257.093 E14.30898
G1 X242.113 Y257.093 E14.31135
G1 X237.785 Y257.095 E14.39276
G1 X237.785 Y282.295 E14.86679
G0 F3600 X243.032 Y282.307
G0 X277.94 Y286.076
G0 X278.858 Y286.072
G0 X280.217 Y285.228
G1 F900 X280.285 Y285.059 E14.87022
G1 X280.285 Y285.228 E14.87044
G1 X280.285 Y285.667 E14.87869
G1 X280.285 Y285.668 E14.87871
G1 X280.285 Y286.095 E14.88674
G1 X279.904 Y286.095 E14.89391
G1 X279.455 Y286.095 E14.90236
G1 X279.246 Y286.095 E14.90629
G1 X279.455 Y286.006 E14.90699
G1 X279.808 Y285.729 E14.91232
G1 X279.886 Y285.667 E14.9142
G1 X280.217 Y285.228 E14.92086
G0 F3600 X280.262 Y283.722
G0 X280.261 Y254.72
G0 X279.418 Y253.363
G1 F900 X279.249 Y253.295 E14.92429
G1 X279.418 Y253.295 E14.92451
G1 X279.856 Y253.295 E14.93275
G1 X279.858 Y253.295 E14.93279
G1 X280.285 Y253.295 E14.94082
G1 X280.285 Y253.676 E14.94798
G1 X280.285 Y254.125 E14.95643
G1 X280.285 Y254.334 E14.96036
G1 X280.196 Y254.125 E14.96106
G1 X279.919 Y253.772 E14.9664
G1 X279.857 Y253.694 E14.96827
G1 X279.856 Y253.693 E14.9683
G1 X279.418 Y253.363 E14.97494
G0 F3600 X280.125 Y254.213
G0 X279.849 Y254.33
;TYPE:WALL-OUTER
G1 F900 X279.574 Y253.981 E14.98329
G1 X279.22 Y253.714 E14.99163
G1 X278.808 Y253.549 E14.99998
G1 X278.368 Y253.495 E15.00832
G1 X277.929 Y253.558 E15.01666
G1 X277.521 Y253.731 E15.025
G1 X277.171 Y254.005 E15.03336
G1 X276.904 Y254.36 E15.04172
G1 X276.739 Y254.772 E15.05007
G1 X276.685 Y255.212 E15.0584
G1 X276.748 Y255.651 E15.06675
G1 X276.921 Y256.059 E15.07508
G1 X277.195 Y256.409 E15.08344
G1 X277.55 Y256.676 E15.0918
G1 X277.962 Y256.841 E15.10015
G1 X278.402 Y256.895 E15.10849
G1 X278.841 Y256.832 E15.11683
G1 X279.25 Y256.659 E15.12518
G1 X279.598 Y256.385 E15.13351
G1 X279.866 Y256.03 E15.14188
G1 X280.031 Y255.618 E15.15023
G1 X280.085 Y255.178 E15.15857
G1 X280.022 Y254.739 E15.16691
G1 X279.849 Y254.33 E15.17526
G0 F3600 X279.726 Y254.173
G0 X279.961 Y253.989
G0 X280.125 Y283.213
G0 X279.849 Y283.33
G1 F900 X279.574 Y282.981 E15.18362
G1 X279.22 Y282.714 E15.19196
G1 X278.808 Y282.549 E15.20031
G1 X278.368 Y282.495 E15.20865
G1 X277.929 Y282.558 E15.21699
G1 X277.521 Y282.731 E15.22533
G1 X277.171 Y283.005 E15.23369
G1 X276.904 Y283.36 E15.24205
G1 X276.739 Y283.772 E15.25039
G1 X276.685 Y284.212 E15.25873
G1 X276.748 Y284.651 E15.26708
G1 X276.921 Y285.059 E15.27541
G1 X277.195 Y285.409 E15.28377
G1 X277.55 Y285.676 E15.29213
G1 X277.962 Y285.841 E15.30048
G1 X278.402 Y285.895 E15.30882
G1 X278.841 Y285.832 E15.31716
G1 X279.25 Y285.659 E15.32551
G1 X279.598 Y285.385 E15.33384
G1 X279.866 Y285.03 E15.34221
G1 X280.031 Y284.618 E15.35056
G1 X280.085 Y284.178 E15.3589
G1 X280.022 Y283.739 E15.36724
G1 X279.849 Y283.33 E15.37559
G0 F3600 X279.726 Y283.173
G0 X279.961 Y282.989
G0 X278.867 Y282.316
G0 X243.398 Y285.137
G0 X242.377 Y284.723
G0 X241.887 Y283.669
G0 X242.184 Y283.707
G1 F900 X242.229 Y284.017 E15.38149
G1 X242.351 Y284.306 E15.38739
G1 X242.545 Y284.552 E15.39328
G1 X242.795 Y284.741 E15.39917
G1 X243.086 Y284.857 E15.40507
G1 X243.397 Y284.896 E15.41096
G1 X243.707 Y284.851 E15.41686
G1 X243.996 Y284.729 E15.42276
G1 X244.242 Y284.535 E15.42865
G1 X244.431 Y284.285 E15.43454
G1 X244.547 Y283.994 E15.44044
G1 X244.586 Y283.683 E15.44633
G1 X244.541 Y283.373 E15.45223
G1 X244.419 Y283.084 E15.45813
G1 X244.225 Y282.838 E15.46402
G1 X243.975 Y282.649 E15.46991
G1 X243.684 Y282.533 E15.47581
G1 X243.373 Y282.494 E15.4817
G1 X243.063 Y282.539 E15.4876
G1 X242.774 Y282.661 E15.4935
G1 X242.528 Y282.855 E15.49939
G1 X242.339 Y283.105 E15.50529
G1 X242.223 Y283.396 E15.51118
G1 X242.184 Y283.707 E15.51707
G0 F3600 X242.212 Y283.905
G0 X241.916 Y283.948
G0 X237.957 Y282.123
G0 X238.185 Y281.895
G1 F900 X248.585 Y281.895 E15.7127
G1 X248.585 Y257.495 E16.17168
G1 X238.185 Y257.495 E16.36731
G1 X238.185 Y281.895 E16.82629
G0 F3600 X238.385 Y281.895
G0 X238.385 Y282.195
G0 X237.957 Y257.267
G0 X241.887 Y255.669
G0 X242.184 Y255.707
G1 F900 X242.229 Y256.017 E16.83218
G1 X242.351 Y256.306 E16.83808
G1 X242.545 Y256.552 E16.84398
G1 X242.795 Y256.741 E16.84987
G1 X243.086 Y256.857 E16.85576
G1 X243.397 Y256.896 E16.86166
G1 X243.707 Y256.851 E16.86755
G1 X243.996 Y256.729 E16.87345
G1 X244.242 Y256.535 E16.87935
G1 X244.431 Y256.285 E16.88524
G1 X244.547 Y255.994 E16.89113
G1 X244.586 Y255.683 E16.89703
G1 X244.541 Y255.373 E16.90292
G1 X244.419 Y255.084 E16.90882
G1 X244.225 Y254.838 E16.91472
G1 X243.975 Y254.649 E16.92061
G1 X243.684 Y254.533 E16.9265
G1 X243.373 Y254.494 E16.9324
G1 X243.063 Y254.539 E16.93829
G1 X242.774 Y254.661 E16.94419
G1 X242.528 Y254.855 E16.95009
G1 X242.339 Y255.105 E16.95598
G1 X242.223 Y255.396 E16.96187
G1 X242.184 Y255.707 E16.96777
G0 F3600 X242.212 Y255.905
G0 X241.916 Y255.948
G0 X210.126 Y254.215
G0 X209.849 Y254.33
G1 F900 X209.574 Y253.981 E16.97613
G1 X209.22 Y253.714 E16.98447
G1 X208.808 Y253.549 E16.99282
G1 X208.368 Y253.495 E17.00116
G1 X207.929 Y253.558 E17.0095
G1 X207.521 Y253.731 E17.01783
G1 X207.171 Y254.005 E17.0262
G1 X206.904 Y254.36 E17.03455
G1 X206.739 Y254.772 E17.0429
G1 X206.685 Y255.212 E17.05124
G1 X206.748 Y255.651 E17.05958
G1 X206.921 Y256.059 E17.06792
G1 X207.195 Y256.409 E17.07628
G1 X207.55 Y256.676 E17.08463
G1 X207.962 Y256.841 E17.09298
G1 X208.402 Y256.895 E17.10132
G1 X208.841 Y256.832 E17.10966
G1 X209.25 Y256.659 E17.11802
G1 X209.598 Y256.385 E17.12635
G1 X209.866 Y256.03 E17.13472
G1 X210.031 Y255.618 E17.14306
G1 X210.085 Y255.178 E17.1514
G1 X210.022 Y254.739 E17.15974
G1 X209.849 Y254.33 E17.1681
G0 F3600 X209.726 Y254.173
G0 X209.961 Y253.988
G0 X210.294 Y254.957
G0 X210.126 Y283.214
G0 X209.849 Y283.33
G1 F900 X209.574 Y282.981 E17.17646
G1 X209.22 Y282.714 E17.1848
G1 X208.808 Y282.549 E17.19315
G1 X208.368 Y282.495 E17.20148
G1 X207.929 Y282.558 E17.20983
G1 X207.521 Y282.731 E17.21816
G1 X207.171 Y283.005 E17.22652
G1 X206.904 Y283.36 E17.23488
G1 X206.739 Y283.772 E17.24323
G1 X206.685 Y284.212 E17.25157
G1 X206.748 Y284.651 E17.25991
G1 X206.921 Y285.059 E17.26824
G1 X207.195 Y285.409 E17.27661
G1 X207.55 Y285.676 E17.28496
G1 X207.962 Y285.841 E17.29331
G1 X208.402 Y285.895 E17.30165
G1 X208.841 Y285.832 E17.30999
G1 X209.25 Y285.659 E17.31834
G1 X209.598 Y285.385 E17.32668
G1 X209.866 Y285.03 E17.33504
G1 X210.031 Y284.618 E17.34339
G1 X210.085 Y284.178 E17.35173
G1 X210.022 Y283.739 E17.36007
G1 X209.849 Y283.33 E17.36843
