;FLAVOR:Marlin
;TIME:733
;Filament used: 0.223145m
;Layer height: 0.3
;MINX:214.432
;MINY:234.172
;MINZ:0.3
;MAXX:254.384
;MAXY:274.124
;MAXZ:3
;Generated with Cura_SteamEngine 4.4.1
M140 S60
M105
M190 S60
M104 S200
M105
M109 S200
M82 ;absolute extrusion mode
G28 ;Home
G1 Z5.0 F6000 ;Move the platform down 15mm
;Prime the extruder
G92 E0
G1 F200 E5
G92 E0
G92 E0
G92 E0
G1 F1500 E-1
;LAYER_COUNT:10
;LAYER:0
M107
G1 F600 Z1.3
G0 F3600 X220.537 Y239.785 Z1.3
;TYPE:SKIRT
G1 F600 Z0.3
G1 F1500 E0
G1 F900 X220.628 Y239.703 E0.0023
G1 X221.725 Y238.75 E0.02964
G1 X221.771 Y238.711 E0.03077
G1 X222.336 Y238.235 E0.04467
G1 X222.7 Y237.962 E0.05323
G1 X222.977 Y237.778 E0.05948
G1 X223.072 Y237.717 E0.06161
G1 X224.344 Y236.923 E0.08981
G1 X224.397 Y236.89 E0.09099
G1 X224.961 Y236.55 E0.10338
G1 X225.348 Y236.345 E0.11161
G1 X225.666 Y236.198 E0.1182
G1 X225.783 Y236.146 E0.12061
G1 X227.135 Y235.573 E0.14823
G1 X227.178 Y235.555 E0.14911
G1 X227.819 Y235.292 E0.16214
G1 X228.254 Y235.142 E0.1708
G1 X228.574 Y235.052 E0.17705
G1 X228.693 Y235.021 E0.17937
G1 X230.123 Y234.666 E0.20708
G1 X230.176 Y234.653 E0.20811
G1 X230.869 Y234.491 E0.22149
G1 X231.321 Y234.412 E0.23013
G1 X231.676 Y234.371 E0.23685
G1 X231.789 Y234.36 E0.23898
G1 X233.242 Y234.234 E0.26642
G1 X233.3 Y234.229 E0.26751
G1 X233.979 Y234.18 E0.28032
G1 X234.408 Y234.172 E0.28839
G1 X234.749 Y234.184 E0.29481
G1 X234.888 Y234.192 E0.29743
G1 X236.371 Y234.296 E0.32539
G1 X236.425 Y234.3 E0.32641
G1 X237.093 Y234.356 E0.33902
G1 X237.518 Y234.415 E0.34709
G1 X237.839 Y234.477 E0.35324
G1 X237.98 Y234.506 E0.35595
G1 X239.414 Y234.837 E0.38363
G1 X239.476 Y234.853 E0.38484
G1 X240.186 Y235.029 E0.3986
G1 X240.603 Y235.156 E0.4068
G1 X240.908 Y235.268 E0.41291
G1 X241.03 Y235.315 E0.41537
G1 X242.379 Y235.861 E0.44274
G1 X242.432 Y235.883 E0.44382
G1 X243.103 Y236.166 E0.45752
G1 X243.511 Y236.366 E0.46607
G1 X243.813 Y236.536 E0.47259
G1 X243.913 Y236.594 E0.47476
G1 X245.148 Y237.337 E0.50187
G1 X245.203 Y237.371 E0.50309
G1 X245.809 Y237.749 E0.51652
G1 X246.159 Y237.994 E0.52456
G1 X246.436 Y238.211 E0.53118
G1 X246.543 Y238.298 E0.53377
G1 X247.64 Y239.22 E0.56073
G1 X247.683 Y239.257 E0.5618
G1 X248.231 Y239.731 E0.57542
G1 X248.558 Y240.048 E0.58399
G1 X248.8 Y240.311 E0.59071
G1 X248.877 Y240.397 E0.59289
G1 X249.81 Y241.472 E0.61966
G1 X249.848 Y241.516 E0.62075
G1 X250.314 Y242.069 E0.63436
G1 X250.565 Y242.401 E0.64219
G1 X250.757 Y242.684 E0.64862
G1 X250.842 Y242.815 E0.65156
G1 X251.613 Y244.053 E0.67899
G1 X251.641 Y244.098 E0.67999
G1 X252.008 Y244.705 E0.69333
G1 X252.219 Y245.104 E0.70182
G1 X252.345 Y245.378 E0.70749
G1 X252.393 Y245.486 E0.70972
G1 X252.977 Y246.862 E0.73784
G1 X253.002 Y246.921 E0.73904
G1 X253.271 Y247.584 E0.7525
G1 X253.414 Y248.004 E0.76085
G1 X253.508 Y248.338 E0.76737
G1 X253.54 Y248.456 E0.76967
G1 X253.892 Y249.871 E0.7971
G1 X253.904 Y249.924 E0.79812
G1 X254.063 Y250.602 E0.81122
G1 X254.14 Y251.038 E0.81955
G1 X254.177 Y251.346 E0.82539
G1 X254.191 Y251.476 E0.82785
G1 X254.322 Y252.981 E0.85626
G1 X254.327 Y253.04 E0.85738
G1 X254.376 Y253.718 E0.87016
G1 X254.384 Y254.146 E0.87822
G1 X254.373 Y254.461 E0.88414
G1 X254.366 Y254.596 E0.88669
G1 X254.264 Y256.078 E0.91463
G1 X254.258 Y256.144 E0.91588
G1 X254.197 Y256.857 E0.92934
G1 X254.137 Y257.288 E0.93752
G1 X254.077 Y257.593 E0.94337
G1 X254.049 Y257.723 E0.94587
G1 X253.708 Y259.197 E0.97433
G1 X253.692 Y259.264 E0.97563
G1 X253.527 Y259.925 E0.98844
G1 X253.402 Y260.332 E0.99645
G1 X253.28 Y260.665 E1.00312
G1 X253.233 Y260.787 E1.00558
G1 X252.702 Y262.102 E1.03226
G1 X252.68 Y262.154 E1.03332
G1 X252.395 Y262.832 E1.04715
G1 X252.203 Y263.227 E1.05542
G1 X252.045 Y263.511 E1.06153
G1 X251.977 Y263.629 E1.06409
G1 X251.218 Y264.89 E1.09178
G1 X251.19 Y264.936 E1.09279
G1 X250.814 Y265.542 E1.1062
G1 X250.553 Y265.914 E1.11475
G1 X250.334 Y266.191 E1.12139
G1 X250.258 Y266.284 E1.12365
G1 X249.345 Y267.37 E1.15034
G1 X249.31 Y267.411 E1.15136
G1 X248.827 Y267.97 E1.16525
G1 X248.514 Y268.293 E1.17371
G1 X248.278 Y268.511 E1.17976
G1 X248.187 Y268.593 E1.18206
G1 X247.09 Y269.546 E1.2094
G1 X247.041 Y269.588 E1.21061
G1 X246.476 Y270.063 E1.22449
G1 X246.118 Y270.331 E1.23291
G1 X245.84 Y270.516 E1.23919
G1 X245.742 Y270.579 E1.24138
G1 X244.47 Y271.373 E1.26958
G1 X244.417 Y271.406 E1.27076
G1 X243.853 Y271.746 E1.28315
G1 X243.471 Y271.949 E1.29128
G1 X243.154 Y272.096 E1.29786
G1 X243.033 Y272.149 E1.30034
G1 X241.685 Y272.721 E1.32789
G1 X241.638 Y272.741 E1.32885
G1 X240.993 Y273.005 E1.34196
G1 X240.561 Y273.154 E1.35055
G1 X240.241 Y273.244 E1.35681
G1 X240.123 Y273.275 E1.3591
G1 X238.699 Y273.629 E1.3867
G1 X238.642 Y273.642 E1.3878
G1 X237.943 Y273.805 E1.4013
G1 X237.497 Y273.883 E1.40982
G1 X237.153 Y273.923 E1.41634
G1 X237.036 Y273.935 E1.41855
G1 X235.557 Y274.063 E1.44647
G1 X235.503 Y274.067 E1.44749
G1 X234.844 Y274.115 E1.45992
G1 X234.416 Y274.124 E1.46797
G1 X234.095 Y274.113 E1.47401
G1 X233.957 Y274.106 E1.47661
G1 X232.478 Y274.004 E1.5045
G1 X232.412 Y273.998 E1.50575
G1 X231.7 Y273.937 E1.51919
G1 X231.267 Y273.876 E1.52741
G1 X230.917 Y273.807 E1.53413
G1 X230.788 Y273.78 E1.5366
G1 X229.398 Y273.458 E1.56344
G1 X229.339 Y273.443 E1.56459
G1 X228.629 Y273.267 E1.57835
G1 X228.208 Y273.138 E1.58663
G1 X227.904 Y273.026 E1.59273
G1 X227.788 Y272.982 E1.59506
G1 X226.437 Y272.436 E1.62247
G1 X226.38 Y272.412 E1.62363
G1 X225.71 Y272.129 E1.63731
G1 X225.304 Y271.93 E1.64582
G1 X225.002 Y271.76 E1.65234
G1 X224.902 Y271.702 E1.65451
G1 X223.667 Y270.959 E1.68162
G1 X223.619 Y270.929 E1.68269
G1 X223.012 Y270.552 E1.69613
G1 X222.643 Y270.293 E1.70461
G1 X222.367 Y270.075 E1.71123
G1 X222.272 Y269.998 E1.71353
G1 X221.175 Y269.076 E1.74048
G1 X221.132 Y269.039 E1.74155
G1 X220.584 Y268.565 E1.75518
G1 X220.257 Y268.248 E1.76374
G1 X220.015 Y267.985 E1.77047
G1 X219.938 Y267.899 E1.77264
G1 X219.005 Y266.824 E1.79941
G1 X218.967 Y266.78 E1.80051
G1 X218.501 Y266.227 E1.81411
G1 X218.25 Y265.895 E1.82194
G1 X218.058 Y265.612 E1.82837
G1 X217.973 Y265.481 E1.83131
G1 X217.201 Y264.242 E1.85877
G1 X217.173 Y264.197 E1.85977
G1 X216.806 Y263.59 E1.87311
G1 X216.592 Y263.185 E1.88173
G1 X216.467 Y262.912 E1.88737
G1 X216.422 Y262.81 E1.88947
G1 X215.838 Y261.434 E1.91759
G1 X215.815 Y261.379 E1.91871
G1 X215.543 Y260.711 E1.93228
G1 X215.392 Y260.268 E1.94108
G1 X215.305 Y259.953 E1.94723
G1 X215.28 Y259.855 E1.94913
G1 X214.928 Y258.442 E1.97652
G1 X214.914 Y258.384 E1.97765
G1 X214.75 Y257.681 E1.99122
G1 X214.672 Y257.239 E1.99967
G1 X214.635 Y256.924 E2.00563
G1 X214.623 Y256.802 E2.00794
G1 X214.494 Y255.313 E2.03605
G1 X214.489 Y255.256 E2.03713
G1 X214.439 Y254.563 E2.0502
G1 X214.432 Y254.115 E2.05863
G1 X214.444 Y253.815 E2.06427
G1 X214.45 Y253.7 E2.06644
G1 X214.552 Y252.218 E2.09438
G1 X214.558 Y252.152 E2.09563
G1 X214.619 Y251.439 E2.10909
G1 X214.678 Y251.013 E2.11718
G1 X214.738 Y250.706 E2.12307
G1 X214.767 Y250.572 E2.12564
G1 X215.098 Y249.14 E2.15329
G1 X215.113 Y249.075 E2.15455
G1 X215.291 Y248.36 E2.16841
G1 X215.413 Y247.96 E2.17627
G1 X215.522 Y247.66 E2.18228
G1 X215.575 Y247.524 E2.18502
G1 X216.135 Y246.142 E2.21307
G1 X216.154 Y246.095 E2.21403
G1 X216.419 Y245.464 E2.2269
G1 X216.614 Y245.063 E2.23529
G1 X216.772 Y244.78 E2.24138
G1 X216.838 Y244.667 E2.24384
G1 X217.597 Y243.406 E2.27153
G1 X217.625 Y243.36 E2.27254
G1 X218.001 Y242.754 E2.28596
G1 X218.262 Y242.382 E2.29451
G1 X218.481 Y242.105 E2.30115
G1 X218.557 Y242.012 E2.30341
G1 X219.479 Y240.915 E2.33036
G1 X219.516 Y240.872 E2.33143
G1 X219.99 Y240.324 E2.34506
G1 X220.301 Y240.003 E2.35347
G1 X220.537 Y239.785 E2.35951
G0 F3600 X220.808 Y240.079
G1 F900 X220.89 Y240.005 E2.36159
G1 X221.987 Y239.052 E2.38892
G1 X222.029 Y239.017 E2.38995
G1 X222.594 Y238.541 E2.40385
G1 X222.921 Y238.295 E2.41155
G1 X223.198 Y238.111 E2.4178
G1 X223.284 Y238.056 E2.41972
G1 X224.556 Y237.262 E2.44793
G1 X224.603 Y237.233 E2.44897
G1 X225.167 Y236.893 E2.46135
G1 X225.515 Y236.708 E2.46877
G1 X225.833 Y236.561 E2.47536
G1 X225.939 Y236.514 E2.47754
G1 X227.291 Y235.941 E2.50516
G1 X227.329 Y235.925 E2.50594
G1 X227.97 Y235.662 E2.51897
G1 X228.362 Y235.527 E2.52677
G1 X228.682 Y235.437 E2.53302
G1 X228.79 Y235.409 E2.53512
G1 X230.22 Y235.054 E2.56283
G1 X230.268 Y235.043 E2.56376
G1 X230.961 Y234.881 E2.57715
G1 X231.367 Y234.81 E2.5849
G1 X231.722 Y234.769 E2.59162
G1 X231.824 Y234.758 E2.59355
G1 X233.277 Y234.632 E2.62099
G1 X233.329 Y234.628 E2.62197
G1 X234.008 Y234.579 E2.63477
G1 X234.394 Y234.572 E2.64204
G1 X234.735 Y234.584 E2.64845
G1 X234.86 Y234.591 E2.65081
G1 X236.343 Y234.695 E2.67877
G1 X236.392 Y234.699 E2.6797
G1 X237.06 Y234.755 E2.69231
G1 X237.442 Y234.807 E2.69956
G1 X237.763 Y234.869 E2.70571
G1 X237.89 Y234.896 E2.70815
G1 X239.324 Y235.227 E2.73584
G1 X239.38 Y235.241 E2.73692
G1 X240.09 Y235.417 E2.75068
G1 X240.465 Y235.532 E2.75806
G1 X240.77 Y235.644 E2.76417
G1 X240.88 Y235.686 E2.76639
G1 X242.229 Y236.232 E2.79376
G1 X242.277 Y236.252 E2.79474
G1 X242.948 Y236.535 E2.80844
G1 X243.315 Y236.715 E2.81613
G1 X243.617 Y236.885 E2.82265
G1 X243.707 Y236.937 E2.8246
G1 X244.942 Y237.68 E2.85171
G1 X244.991 Y237.711 E2.8528
G1 X245.597 Y238.089 E2.86624
G1 X245.912 Y238.309 E2.87347
G1 X246.189 Y238.526 E2.88008
G1 X246.285 Y238.604 E2.88241
G1 X247.382 Y239.526 E2.90937
G1 X247.421 Y239.559 E2.91033
G1 X247.969 Y240.033 E2.92396
G1 X248.263 Y240.318 E2.93166
G1 X248.505 Y240.581 E2.93838
G1 X248.575 Y240.659 E2.94035
G1 X249.508 Y241.734 E2.96713
G1 X249.542 Y241.774 E2.96812
G1 X250.008 Y242.327 E2.98172
G1 X250.234 Y242.626 E2.98877
G1 X250.426 Y242.909 E2.9952
G1 X250.503 Y243.027 E2.99785
G1 X251.274 Y244.265 E3.02529
G1 X251.299 Y244.305 E3.02617
G1 X251.666 Y244.912 E3.03952
G1 X251.856 Y245.271 E3.04716
G1 X251.982 Y245.545 E3.05283
G1 X252.025 Y245.643 E3.05484
G1 X252.609 Y247.019 E3.08296
G1 X252.631 Y247.072 E3.08404
G1 X252.9 Y247.735 E3.0975
G1 X253.029 Y248.113 E3.10501
G1 X253.123 Y248.447 E3.11154
G1 X253.152 Y248.553 E3.11361
G1 X253.504 Y249.968 E3.14104
G1 X253.515 Y250.015 E3.14194
G1 X253.674 Y250.693 E3.15504
G1 X253.743 Y251.086 E3.16255
G1 X253.78 Y251.394 E3.16838
G1 X253.792 Y251.511 E3.1706
G1 X253.923 Y253.016 E3.19901
G1 X253.928 Y253.068 E3.2
G1 X253.977 Y253.746 E3.21278
G1 X253.984 Y254.132 E3.22004
G1 X253.973 Y254.447 E3.22597
G1 X253.967 Y254.568 E3.22825
G1 X253.865 Y256.05 E3.2562
G1 X253.86 Y256.11 E3.25733
G1 X253.799 Y256.823 E3.27079
G1 X253.744 Y257.211 E3.27816
G1 X253.684 Y257.516 E3.28401
G1 X253.659 Y257.632 E3.28624
G1 X253.318 Y259.106 E3.3147
G1 X253.304 Y259.167 E3.31588
G1 X253.139 Y259.828 E3.32869
G1 X253.026 Y260.194 E3.3359
G1 X252.904 Y260.527 E3.34257
G1 X252.862 Y260.637 E3.34478
G1 X252.331 Y261.952 E3.37146
G1 X252.312 Y261.999 E3.37241
G1 X252.027 Y262.677 E3.38625
G1 X251.854 Y263.032 E3.39368
G1 X251.696 Y263.316 E3.39979
G1 X251.634 Y263.422 E3.4021
G1 X250.875 Y264.683 E3.42978
G1 X250.85 Y264.725 E3.4307
G1 X250.474 Y265.331 E3.44412
G1 X250.239 Y265.666 E3.45182
G1 X250.02 Y265.943 E3.45846
G1 X249.952 Y266.027 E3.46049
G1 X249.039 Y267.113 E3.48718
G1 X249.007 Y267.15 E3.4881
G1 X248.524 Y267.709 E3.502
G1 X248.243 Y267.999 E3.50959
G1 X248.007 Y268.217 E3.51564
G1 X247.925 Y268.291 E3.51771
G1 X246.828 Y269.244 E3.54505
G1 X246.784 Y269.282 E3.54614
G1 X246.219 Y269.757 E3.56003
G1 X245.896 Y269.998 E3.56761
G1 X245.618 Y270.183 E3.57389
G1 X245.53 Y270.24 E3.57586
G1 X244.258 Y271.034 E3.60407
G1 X244.211 Y271.063 E3.60511
G1 X243.647 Y271.403 E3.61749
G1 X243.302 Y271.586 E3.62484
G1 X242.985 Y271.733 E3.63141
G1 X242.877 Y271.781 E3.63364
G1 X241.529 Y272.353 E3.66118
G1 X241.487 Y272.371 E3.66204
G1 X240.842 Y272.635 E3.67515
G1 X240.453 Y272.769 E3.68289
G1 X240.133 Y272.859 E3.68914
G1 X240.027 Y272.887 E3.6912
G1 X238.603 Y273.241 E3.71881
G1 X238.552 Y273.253 E3.71979
G1 X237.853 Y273.416 E3.73329
G1 X237.451 Y273.486 E3.74097
G1 X237.107 Y273.526 E3.74748
G1 X237.001 Y273.537 E3.74949
G1 X235.522 Y273.665 E3.77741
G1 X235.474 Y273.668 E3.77832
G1 X234.815 Y273.716 E3.79075
G1 X234.43 Y273.724 E3.79799
G1 X234.109 Y273.713 E3.80403
G1 X233.984 Y273.706 E3.80639
G1 X232.505 Y273.604 E3.83427
G1 X232.446 Y273.6 E3.83539
G1 X231.734 Y273.539 E3.84883
G1 X231.345 Y273.484 E3.85622
G1 X230.995 Y273.415 E3.86293
G1 X230.879 Y273.39 E3.86516
G1 X229.489 Y273.068 E3.892
G1 X229.435 Y273.055 E3.89304
G1 X228.725 Y272.879 E3.9068
G1 X228.346 Y272.763 E3.91426
G1 X228.042 Y272.651 E3.92035
G1 X227.938 Y272.611 E3.92245
G1 X226.587 Y272.065 E3.94986
G1 X226.535 Y272.043 E3.95092
G1 X225.865 Y271.76 E3.9646
G1 X225.5 Y271.581 E3.97225
G1 X225.198 Y271.411 E3.97877
G1 X225.108 Y271.359 E3.98072
G1 X223.873 Y270.616 E4.00784
G1 X223.83 Y270.589 E4.00879
G1 X223.223 Y270.212 E4.02223
G1 X222.891 Y269.979 E4.02986
G1 X222.615 Y269.761 E4.03648
G1 X222.53 Y269.692 E4.03854
G1 X221.433 Y268.77 E4.06549
G1 X221.394 Y268.737 E4.06645
G1 X220.846 Y268.263 E4.08008
G1 X220.552 Y267.978 E4.08778
G1 X220.31 Y267.715 E4.09451
G1 X220.24 Y267.637 E4.09648
G1 X219.307 Y266.562 E4.12325
G1 X219.273 Y266.522 E4.12424
G1 X218.807 Y265.969 E4.13784
G1 X218.581 Y265.67 E4.14489
G1 X218.389 Y265.387 E4.15133
G1 X218.313 Y265.27 E4.15395
G1 X217.541 Y264.031 E4.18141
G1 X217.515 Y263.99 E4.18233
G1 X217.148 Y263.383 E4.19567
G1 X216.956 Y263.019 E4.20341
G1 X216.831 Y262.746 E4.20906
G1 X216.79 Y262.653 E4.21097
G1 X216.206 Y261.277 E4.23909
G1 X216.186 Y261.229 E4.24007
G1 X215.914 Y260.561 E4.25363
G1 X215.778 Y260.161 E4.26158
G1 X215.691 Y259.846 E4.26773
G1 X215.668 Y259.758 E4.26944
G1 X215.316 Y258.345 E4.29683
G1 X215.303 Y258.293 E4.29784
G1 X215.139 Y257.59 E4.31142
G1 X215.07 Y257.192 E4.31902
G1 X215.033 Y256.877 E4.32498
G1 X215.021 Y256.768 E4.32704
G1 X214.892 Y255.279 E4.35516
G1 X214.888 Y255.227 E4.35614
G1 X214.838 Y254.534 E4.36921
G1 X214.832 Y254.131 E4.37679
G1 X214.844 Y253.831 E4.38244
G1 X214.849 Y253.728 E4.38438
G1 X214.951 Y252.246 E4.41232
G1 X214.956 Y252.186 E4.41345
G1 X215.017 Y251.473 E4.42691
G1 X215.071 Y251.089 E4.43421
G1 X215.131 Y250.782 E4.44009
G1 X215.156 Y250.662 E4.4424
G1 X215.487 Y249.23 E4.47005
G1 X215.502 Y249.171 E4.47119
G1 X215.68 Y248.456 E4.48505
G1 X215.789 Y248.097 E4.49211
G1 X215.898 Y247.797 E4.49811
G1 X215.946 Y247.674 E4.5006
G1 X216.506 Y246.292 E4.52864
G1 X216.523 Y246.25 E4.5295
G1 X216.788 Y245.619 E4.54237
G1 X216.964 Y245.258 E4.54993
G1 X217.122 Y244.975 E4.55602
G1 X217.181 Y244.874 E4.55822
G1 X217.94 Y243.613 E4.58591
G1 X217.965 Y243.571 E4.58683
G1 X218.341 Y242.965 E4.60024
G1 X218.576 Y242.63 E4.60794
G1 X218.795 Y242.353 E4.61458
G1 X218.863 Y242.27 E4.6166
G1 X219.785 Y241.173 E4.64356
G1 X219.818 Y241.134 E4.64452
G1 X220.292 Y240.586 E4.65815
G1 X220.572 Y240.297 E4.66572
G1 X220.808 Y240.079 E4.67176
G0 F3600 X221.08 Y240.372
G1 F900 X221.152 Y240.307 E4.67358
G1 X222.249 Y239.354 E4.70092
G1 X222.286 Y239.323 E4.70183
G1 X222.851 Y238.847 E4.71572
G1 X223.142 Y238.628 E4.72257
G1 X223.419 Y238.444 E4.72883
G1 X223.496 Y238.395 E4.73055
G1 X224.768 Y237.601 E4.75875
G1 X224.81 Y237.575 E4.75968
G1 X225.374 Y237.235 E4.77207
G1 X225.683 Y237.071 E4.77865
G1 X226.001 Y236.924 E4.78524
G1 X226.095 Y236.883 E4.78717
G1 X227.447 Y236.31 E4.81479
G1 X227.481 Y236.296 E4.81548
G1 X228.122 Y236.033 E4.82851
G1 X228.471 Y235.913 E4.83546
G1 X228.791 Y235.823 E4.84171
G1 X228.886 Y235.797 E4.84356
G1 X230.316 Y235.442 E4.87128
G1 X230.359 Y235.432 E4.87211
G1 X231.052 Y235.27 E4.8855
G1 X231.413 Y235.207 E4.89239
G1 X231.768 Y235.166 E4.89911
G1 X231.859 Y235.157 E4.90083
G1 X233.312 Y235.031 E4.92827
G1 X233.358 Y235.027 E4.92913
G1 X234.037 Y234.978 E4.94194
G1 X234.38 Y234.972 E4.94839
G1 X234.721 Y234.984 E4.95481
G1 X234.832 Y234.99 E4.9569
G1 X236.315 Y235.094 E4.98487
G1 X236.358 Y235.097 E4.98568
G1 X237.026 Y235.153 E4.99829
G1 X237.366 Y235.2 E5.00474
G1 X237.687 Y235.262 E5.01089
G1 X237.8 Y235.286 E5.01307
G1 X239.234 Y235.617 E5.04075
G1 X239.284 Y235.629 E5.04172
