;FLAVOR:Marlin
;TIME:1329
;Filament used: 0.408209m
;Layer height: 0.3
;MINX:223.206
;MINY:235.808
;MINZ:0.3
;MAXX:274.329
;MAXY:286.942
;MAXZ:3
;Generated with Cura_SteamEngine 4.4.1
M140 S60
M105
M190 S60
M104 S200
M105
M109 S200
M82 ;absolute extrusion mode
G28 ;Home
G1 Z5.0 F6000 ;Move the platform down 15mm
;Prime the extruder
G92 E0
G1 F200 E5
G92 E0
G92 E0
G92 E0
G1 F1500 E-1
;LAYER_COUNT:10
;LAYER:0
M107
G1 F600 Z1.3
G0 F3600 X231.44 Y242.575 Z1.3
;TYPE:SKIRT
G1 F600 Z0.3
G1 F1500 E0
G1 F900 X231.963 Y242.077 E0.01358
G1 X232.184 Y241.883 E0.01912
G1 X232.345 Y241.753 E0.02301
G1 X232.427 Y241.689 E0.02497
G1 X232.695 Y241.485 E0.0313
G1 X232.721 Y241.465 E0.03192
G1 X234.067 Y240.46 E0.06352
G1 X234.106 Y240.432 E0.06442
G1 X234.679 Y240.016 E0.07774
G1 X234.932 Y239.848 E0.08345
G1 X235.109 Y239.741 E0.08734
G1 X235.191 Y239.693 E0.08913
G1 X235.467 Y239.536 E0.0951
G1 X235.495 Y239.52 E0.09571
G1 X236.949 Y238.71 E0.12702
G1 X236.993 Y238.686 E0.12796
G1 X237.657 Y238.328 E0.14215
G1 X237.935 Y238.193 E0.14796
G1 X238.129 Y238.109 E0.15194
G1 X238.209 Y238.076 E0.15357
G1 X238.466 Y237.972 E0.15878
G1 X238.5 Y237.958 E0.15947
G1 X240.114 Y237.324 E0.19209
G1 X240.16 Y237.306 E0.19302
G1 X240.831 Y237.053 E0.20651
G1 X241.185 Y236.941 E0.2135
G1 X241.736 Y236.796 E0.22421
G1 X241.794 Y236.781 E0.22534
G1 X243.4 Y236.387 E0.25645
G1 X243.444 Y236.376 E0.2573
G1 X244.12 Y236.219 E0.27035
G1 X244.413 Y236.164 E0.27596
G1 X244.618 Y236.134 E0.27986
G1 X244.711 Y236.122 E0.28162
G1 X245.003 Y236.087 E0.28715
G1 X245.047 Y236.081 E0.28799
G1 X246.755 Y235.898 E0.3203
G1 X246.811 Y235.893 E0.32136
G1 X247.543 Y235.826 E0.33519
G1 X247.827 Y235.811 E0.34054
G1 X248.075 Y235.808 E0.3452
G1 X248.21 Y235.809 E0.34774
G1 X250.191 Y235.859 E0.38502
G1 X250.244 Y235.861 E0.38601
G1 X250.944 Y235.889 E0.39919
G1 X251.308 Y235.922 E0.40607
G1 X251.855 Y236 E0.41646
G1 X251.922 Y236.01 E0.41773
G1 X253.586 Y236.279 E0.44944
G1 X253.637 Y236.288 E0.45042
G1 X254.333 Y236.411 E0.46371
G1 X254.688 Y236.492 E0.47056
G1 X255.179 Y236.631 E0.48016
G1 X255.241 Y236.649 E0.48137
G1 X256.879 Y237.145 E0.51357
G1 X256.922 Y237.159 E0.51442
G1 X257.592 Y237.371 E0.52764
G1 X257.94 Y237.501 E0.53462
G1 X258.479 Y237.735 E0.54568
G1 X258.539 Y237.762 E0.54692
G1 X260.034 Y238.444 E0.57782
G1 X260.079 Y238.465 E0.57876
G1 X260.726 Y238.771 E0.59222
G1 X260.997 Y238.913 E0.59798
G1 X261.181 Y239.02 E0.60198
G1 X261.259 Y239.067 E0.60369
G1 X261.449 Y239.184 E0.60789
G1 X261.478 Y239.202 E0.60853
G1 X263.045 Y240.188 E0.64336
G1 X263.084 Y240.213 E0.64423
G1 X263.594 Y240.543 E0.65566
G1 X263.818 Y240.7 E0.6608
G1 X264.002 Y240.84 E0.66515
G1 X264.099 Y240.916 E0.66747
G1 X264.317 Y241.094 E0.67276
G1 X264.346 Y241.119 E0.67348
G1 X265.722 Y242.267 E0.70719
G1 X265.761 Y242.299 E0.70814
G1 X266.262 Y242.729 E0.72056
G1 X266.48 Y242.933 E0.72618
G1 X266.626 Y243.081 E0.73009
G1 X266.691 Y243.149 E0.73186
G1 X266.911 Y243.384 E0.73791
G1 X266.938 Y243.412 E0.73864
G1 X268.115 Y244.697 E0.77142
G1 X268.145 Y244.731 E0.77228
G1 X268.579 Y245.217 E0.78453
G1 X268.769 Y245.448 E0.79016
G1 X268.916 Y245.643 E0.79475
G1 X268.972 Y245.72 E0.79654
G1 X269.136 Y245.95 E0.80186
G1 X269.159 Y245.982 E0.8026
G1 X270.155 Y247.412 E0.83538
G1 X270.183 Y247.454 E0.83633
G1 X270.567 Y248.022 E0.84922
G1 X270.75 Y248.323 E0.85585
G1 X270.997 Y248.779 E0.86561
G1 X271.035 Y248.85 E0.86712
G1 X271.822 Y250.383 E0.89954
G1 X271.844 Y250.427 E0.90046
G1 X272.153 Y251.05 E0.91354
G1 X272.292 Y251.369 E0.92009
G1 X272.466 Y251.826 E0.92929
G1 X272.496 Y251.906 E0.93089
G1 X273.079 Y253.553 E0.96376
G1 X273.095 Y253.6 E0.96469
G1 X273.317 Y254.256 E0.97772
G1 X273.399 Y254.534 E0.98317
G1 X273.464 Y254.793 E0.98819
G1 X273.494 Y254.924 E0.99072
G1 X273.903 Y256.857 E1.02789
G1 X273.914 Y256.912 E1.02894
G1 X274.049 Y257.603 E1.04219
G1 X274.1 Y257.959 E1.04895
G1 X274.148 Y258.474 E1.05868
G1 X274.154 Y258.546 E1.06004
G1 X274.282 Y260.299 E1.0931
G1 X274.285 Y260.344 E1.09395
G1 X274.323 Y260.974 E1.10582
G1 X274.329 Y261.262 E1.11124
G1 X274.324 Y261.517 E1.11604
G1 X274.32 Y261.629 E1.11815
G1 X274.306 Y261.904 E1.12333
G1 X274.305 Y261.932 E1.12385
G1 X274.205 Y263.634 E1.15593
G1 X274.201 Y263.689 E1.15696
G1 X274.147 Y264.418 E1.17071
G1 X274.101 Y264.783 E1.17763
G1 X273.997 Y265.367 E1.18879
G1 X273.985 Y265.43 E1.19
G1 X273.678 Y266.992 E1.21994
G1 X273.668 Y267.045 E1.22096
G1 X273.512 Y267.78 E1.23509
G1 X273.421 Y268.123 E1.24177
G1 X273.251 Y268.658 E1.25232
G1 X273.229 Y268.725 E1.25365
G1 X272.7 Y270.283 E1.2846
G1 X272.683 Y270.331 E1.28556
G1 X272.438 Y271.021 E1.29933
G1 X272.299 Y271.359 E1.30621
G1 X272.058 Y271.867 E1.31678
G1 X272.028 Y271.927 E1.31805
G1 X271.301 Y273.389 E1.34876
G1 X271.28 Y273.431 E1.34964
G1 X270.939 Y274.095 E1.36368
G1 X270.753 Y274.416 E1.37066
G1 X270.459 Y274.867 E1.38079
G1 X270.425 Y274.918 E1.38194
G1 X269.466 Y276.336 E1.41414
G1 X269.435 Y276.381 E1.41517
G1 X269.064 Y276.912 E1.42736
G1 X268.857 Y277.18 E1.43373
G1 X268.485 Y277.618 E1.44453
G1 X268.427 Y277.685 E1.4462
G1 X267.282 Y278.968 E1.47855
G1 X267.251 Y279.002 E1.47941
G1 X266.806 Y279.488 E1.49181
G1 X266.549 Y279.742 E1.49861
G1 X266.147 Y280.101 E1.50875
G1 X266.091 Y280.15 E1.51014
G1 X264.805 Y281.252 E1.542
G1 X264.765 Y281.286 E1.54299
G1 X264.218 Y281.741 E1.55637
G1 X263.98 Y281.922 E1.562
G1 X263.8 Y282.048 E1.56613
G1 X263.719 Y282.104 E1.56798
G1 X263.478 Y282.263 E1.57341
G1 X263.455 Y282.278 E1.57393
G1 X261.993 Y283.227 E1.60672
G1 X261.95 Y283.254 E1.60767
G1 X261.384 Y283.61 E1.62025
G1 X261.08 Y283.782 E1.62682
G1 X260.591 Y284.027 E1.63711
G1 X260.514 Y284.064 E1.63872
G1 X258.962 Y284.796 E1.67099
G1 X258.914 Y284.818 E1.67199
G1 X258.286 Y285.103 E1.68496
G1 X258.022 Y285.211 E1.69033
G1 X257.82 Y285.284 E1.69437
G1 X257.719 Y285.318 E1.69637
G1 X257.393 Y285.425 E1.70282
G1 X257.36 Y285.436 E1.70348
G1 X255.773 Y285.94 E1.7348
G1 X255.723 Y285.955 E1.73578
G1 X255.034 Y286.163 E1.74932
G1 X254.686 Y286.25 E1.75607
G1 X254.14 Y286.357 E1.76653
G1 X254.07 Y286.37 E1.76787
G1 X252.422 Y286.659 E1.79935
G1 X252.375 Y286.667 E1.80024
G1 X251.689 Y286.778 E1.81331
G1 X251.388 Y286.814 E1.81902
G1 X251.152 Y286.832 E1.82347
G1 X251.053 Y286.838 E1.82533
G1 X250.786 Y286.851 E1.83036
G1 X250.755 Y286.852 E1.83095
G1 X249.031 Y286.921 E1.8634
G1 X248.982 Y286.923 E1.86432
G1 X248.263 Y286.942 E1.87785
G1 X247.903 Y286.933 E1.88463
G1 X247.362 Y286.893 E1.89483
G1 X247.293 Y286.888 E1.89613
G1 X245.628 Y286.733 E1.92759
G1 X245.58 Y286.728 E1.9285
G1 X244.867 Y286.652 E1.94198
G1 X244.553 Y286.604 E1.94796
G1 X244.34 Y286.562 E1.95204
G1 X244.267 Y286.547 E1.95344
G1 X243.988 Y286.486 E1.95882
G1 X243.946 Y286.477 E1.95962
G1 X242.25 Y286.085 E1.99237
G1 X242.198 Y286.072 E1.99338
G1 X241.518 Y285.904 E2.00655
G1 X241.174 Y285.801 E2.01331
G1 X240.671 Y285.622 E2.02335
G1 X240.609 Y285.599 E2.02459
G1 X239.022 Y285.001 E2.0565
G1 X238.973 Y284.982 E2.05748
G1 X238.325 Y284.727 E2.07058
G1 X238.047 Y284.604 E2.0763
G1 X237.863 Y284.513 E2.08016
G1 X237.782 Y284.472 E2.08187
G1 X237.459 Y284.302 E2.08874
G1 X237.427 Y284.284 E2.08943
G1 X235.974 Y283.5 E2.12048
G1 X235.924 Y283.473 E2.12155
G1 X235.292 Y283.119 E2.13518
G1 X235.051 Y282.971 E2.1405
G1 X234.858 Y282.842 E2.14487
G1 X234.777 Y282.786 E2.14672
G1 X234.602 Y282.662 E2.15075
G1 X234.566 Y282.637 E2.15158
G1 X233.101 Y281.572 E2.18565
G1 X233.064 Y281.545 E2.18651
G1 X232.527 Y281.144 E2.19911
G1 X232.283 Y280.944 E2.20505
G1 X232.124 Y280.802 E2.20906
G1 X232.061 Y280.745 E2.21066
G1 X231.809 Y280.509 E2.21715
G1 X231.785 Y280.486 E2.21778
G1 X230.585 Y279.341 E2.24898
G1 X230.552 Y279.308 E2.24985
G1 X230.028 Y278.795 E2.26365
G1 X229.772 Y278.518 E2.27074
G1 X229.446 Y278.124 E2.28036
G1 X229.41 Y278.079 E2.28145
G1 X228.344 Y276.748 E2.31352
G1 X228.313 Y276.709 E2.31446
G1 X227.871 Y276.141 E2.328
G1 X227.662 Y275.842 E2.33486
G1 X227.383 Y275.397 E2.34474
G1 X227.347 Y275.339 E2.34603
G1 X226.478 Y273.893 E2.37776
G1 X226.455 Y273.854 E2.37861
G1 X226.093 Y273.234 E2.39212
G1 X225.943 Y272.948 E2.39819
G1 X225.852 Y272.754 E2.40222
G1 X225.819 Y272.682 E2.40371
G1 X225.703 Y272.42 E2.4091
G1 X225.691 Y272.392 E2.40967
G1 X224.996 Y270.785 E2.44261
G1 X224.976 Y270.737 E2.44359
G1 X224.713 Y270.104 E2.45648
G1 X224.592 Y269.767 E2.46322
G1 X224.445 Y269.282 E2.47275
G1 X224.424 Y269.211 E2.47414
G1 X223.954 Y267.536 E2.50687
G1 X223.941 Y267.488 E2.5078
G1 X223.764 Y266.822 E2.52076
G1 X223.699 Y266.527 E2.52645
G1 X223.662 Y266.319 E2.53042
G1 X223.647 Y266.23 E2.53212
G1 X223.607 Y265.967 E2.53712
G1 X223.601 Y265.928 E2.53786
G1 X223.354 Y264.175 E2.57117
G1 X223.348 Y264.126 E2.57209
G1 X223.261 Y263.44 E2.5851
G1 X223.233 Y263.076 E2.59197
G1 X223.219 Y262.507 E2.60268
G1 X223.218 Y262.445 E2.60384
G1 X223.206 Y260.821 E2.63439
G1 X223.206 Y260.77 E2.63535
G1 X223.211 Y260.027 E2.64933
G1 X223.227 Y259.708 E2.65533
G1 X223.247 Y259.499 E2.65928
G1 X223.254 Y259.432 E2.66055
G1 X223.287 Y259.144 E2.666
G1 X223.293 Y259.099 E2.66686
G1 X223.512 Y257.38 E2.69946
G1 X223.519 Y257.329 E2.70042
G1 X223.618 Y256.631 E2.71368
G1 X223.686 Y256.279 E2.72043
G1 X223.806 Y255.79 E2.7299
G1 X223.824 Y255.72 E2.73126
G1 X224.263 Y254.074 E2.7633
G1 X224.277 Y254.021 E2.76433
G1 X224.476 Y253.318 E2.77808
G1 X224.589 Y252.983 E2.78473
G1 X224.781 Y252.494 E2.79461
G1 X224.808 Y252.427 E2.79597
G1 X225.45 Y250.884 E2.82741
G1 X225.47 Y250.838 E2.82835
G1 X225.764 Y250.158 E2.84229
G1 X225.899 Y249.879 E2.84812
G1 X225.996 Y249.699 E2.85196
G1 X226.033 Y249.632 E2.8534
G1 X226.173 Y249.385 E2.85874
G1 X226.196 Y249.345 E2.85961
G1 X227.085 Y247.822 E2.89278
G1 X227.113 Y247.775 E2.89381
G1 X227.461 Y247.199 E2.90647
G1 X227.661 Y246.903 E2.91319
G1 X228.01 Y246.437 E2.92414
G1 X228.051 Y246.383 E2.92542
G1 X229.063 Y245.084 E2.95639
G1 X229.093 Y245.045 E2.95732
G1 X229.536 Y244.492 E2.97065
G1 X229.772 Y244.226 E2.97733
G1 X230.168 Y243.821 E2.98799
G1 X230.224 Y243.765 E2.98948
G1 X231.405 Y242.609 E3.02057
G1 X231.44 Y242.575 E3.02148
G0 F3600 X231.716 Y242.865
G1 F900 X232.239 Y242.367 E3.03507
G1 X232.436 Y242.194 E3.04
G1 X232.597 Y242.064 E3.04389
G1 X232.669 Y242.008 E3.04561
G1 X232.937 Y241.804 E3.05194
G1 X232.96 Y241.786 E3.05249
G1 X234.306 Y240.781 E3.08409
G1 X234.341 Y240.755 E3.08491
G1 X234.914 Y240.339 E3.09823
G1 X235.139 Y240.19 E3.10331
G1 X235.316 Y240.083 E3.1072
G1 X235.389 Y240.041 E3.10878
G1 X235.665 Y239.884 E3.11475
G1 X235.69 Y239.87 E3.11529
G1 X237.144 Y239.06 E3.1466
G1 X237.182 Y239.038 E3.14743
G1 X237.846 Y238.68 E3.16162
G1 X238.094 Y238.56 E3.1668
G1 X238.288 Y238.476 E3.17078
G1 X238.359 Y238.447 E3.17222
G1 X238.616 Y238.343 E3.17743
G1 X238.646 Y238.331 E3.17804
G1 X240.26 Y237.697 E3.21066
G1 X240.301 Y237.681 E3.21149
G1 X240.972 Y237.428 E3.22498
G1 X241.287 Y237.327 E3.2312
G1 X241.838 Y237.182 E3.24192
G1 X241.89 Y237.169 E3.24293
G1 X243.496 Y236.775 E3.27403
G1 X243.534 Y236.766 E3.27477
G1 X244.21 Y236.609 E3.28782
G1 X244.471 Y236.56 E3.29282
G1 X244.676 Y236.53 E3.29671
G1 X244.758 Y236.519 E3.29827
G1 X245.05 Y236.484 E3.3038
G1 X245.09 Y236.479 E3.30456
G1 X246.798 Y236.296 E3.33687
G1 X246.847 Y236.291 E3.3378
G1 X247.579 Y236.224 E3.35163
G1 X247.832 Y236.211 E3.35639
G1 X248.08 Y236.208 E3.36106
G1 X248.2 Y236.209 E3.36331
G1 X250.181 Y236.259 E3.40059
G1 X250.228 Y236.261 E3.40147
G1 X250.928 Y236.289 E3.41465
G1 X251.252 Y236.318 E3.42077
G1 X251.799 Y236.396 E3.43116
G1 X251.858 Y236.405 E3.43229
G1 X253.522 Y236.674 E3.46399
G1 X253.568 Y236.682 E3.46487
G1 X254.264 Y236.805 E3.47817
G1 X254.579 Y236.877 E3.48425
G1 X255.07 Y237.016 E3.49384
G1 X255.125 Y237.032 E3.49492
G1 X256.763 Y237.528 E3.52712
G1 X256.801 Y237.54 E3.52786
G1 X257.471 Y237.752 E3.54108
G1 X257.78 Y237.868 E3.54729
G1 X258.319 Y238.102 E3.55835
G1 X258.373 Y238.126 E3.55946
G1 X259.868 Y238.808 E3.59037
G1 X259.908 Y238.826 E3.59119
G1 X260.555 Y239.132 E3.60465
G1 X260.796 Y239.259 E3.60978
G1 X260.98 Y239.366 E3.61378
G1 X261.049 Y239.407 E3.61529
G1 X261.239 Y239.524 E3.61949
G1 X261.265 Y239.541 E3.62007
G1 X262.832 Y240.527 E3.6549
G1 X262.866 Y240.548 E3.65565
G1 X263.376 Y240.878 E3.66708
G1 X263.576 Y241.018 E3.67167
G1 X263.76 Y241.158 E3.67602
G1 X263.846 Y241.226 E3.67808
G1 X264.064 Y241.404 E3.68338
G1 X264.09 Y241.426 E3.68402
G1 X265.466 Y242.574 E3.71773
G1 X265.5 Y242.603 E3.71857
G1 X266.001 Y243.033 E3.73099
G1 X266.195 Y243.214 E3.73598
G1 X266.341 Y243.362 E3.73989
G1 X266.399 Y243.422 E3.74146
G1 X266.619 Y243.657 E3.74751
G1 X266.643 Y243.683 E3.74818
G1 X267.82 Y244.968 E3.78096
G1 X267.847 Y244.998 E3.78172
G1 X268.281 Y245.484 E3.79397
G1 X268.449 Y245.689 E3.79896
G1 X268.596 Y245.884 E3.80355
G1 X268.646 Y245.952 E3.80514
G1 X268.81 Y246.182 E3.81045
G1 X268.831 Y246.211 E3.81113
G1 X269.827 Y247.641 E3.84391
G1 X269.852 Y247.678 E3.84475
G1 X270.236 Y248.246 E3.85764
G1 X270.399 Y248.514 E3.86354
G1 X270.646 Y248.97 E3.8733
G1 X270.679 Y249.033 E3.87464
G1 X271.466 Y250.566 E3.90705
G1 X271.486 Y250.605 E3.90788
G1 X271.795 Y251.228 E3.92096
G1 X271.919 Y251.511 E3.92677
G1 X272.093 Y251.968 E3.93597
G1 X272.119 Y252.039 E3.93739
G1 X272.702 Y253.686 E3.97025
G1 X272.716 Y253.728 E3.97109
G1 X272.938 Y254.384 E3.98411
G1 X273.011 Y254.631 E3.98896
G1 X273.076 Y254.89 E3.99398
G1 X273.103 Y255.007 E3.99624
G1 X273.512 Y256.94 E4.03341
G1 X273.522 Y256.988 E4.03433
G1 X273.657 Y257.679 E4.04757
G1 X273.702 Y257.996 E4.0536
G1 X273.75 Y258.511 E4.06333
G1 X273.756 Y258.575 E4.06453
G1 X273.884 Y260.328 E4.0976
G1 X273.886 Y260.368 E4.09835
G1 X273.924 Y260.998 E4.11022
G1 X273.929 Y261.254 E4.11504
G1 X273.924 Y261.509 E4.11984
G1 X273.921 Y261.609 E4.12172
G1 X273.907 Y261.884 E4.1269
G1 X273.905 Y261.909 E4.12737
G1 X273.805 Y263.611 E4.15944
G1 X273.802 Y263.659 E4.16035
G1 X273.748 Y264.388 E4.1741
G1 X273.707 Y264.713 E4.18026
G1 X273.603 Y265.297 E4.19142
G1 X273.593 Y265.353 E4.19249
G1 X273.286 Y266.915 E4.22243
G1 X273.276 Y266.962 E4.22333
G1 X273.12 Y267.697 E4.23747
G1 X273.04 Y268.002 E4.2434
G1 X272.87 Y268.537 E4.25396
G1 X272.85 Y268.597 E4.25515
G1 X272.321 Y270.155 E4.2861
G1 X272.307 Y270.197 E4.28693
G1 X272.062 Y270.887 E4.3007
G1 X271.937 Y271.188 E4.30684
G1 X271.696 Y271.696 E4.31741
G1 X271.67 Y271.749 E4.31852
G1 X270.943 Y273.211 E4.34924
G1 X270.925 Y273.248 E4.35001
G1 X270.584 Y273.912 E4.36405
G1 X270.418 Y274.198 E4.37027
G1 X270.124 Y274.649 E4.3804
G1 X270.094 Y274.694 E4.38142
G1 X269.135 Y276.112 E4.41362
G1 X269.107 Y276.152 E4.41453
G1 X268.736 Y276.683 E4.42672
G1 X268.552 Y276.922 E4.43239
G1 X268.18 Y277.36 E4.4432
G1 X268.128 Y277.419 E4.44468
G1 X266.983 Y278.702 E4.47703
G1 X266.956 Y278.732 E4.47779
G1 X266.511 Y279.218 E4.49018
G1 X266.282 Y279.444 E4.49624
G1 X265.88 Y279.803 E4.50637
G1 X265.831 Y279.846 E4.5076
G1 X264.545 Y280.948 E4.53946
G1 X264.509 Y280.978 E4.54034
G1 X263.962 Y281.433 E4.55372
G1 X263.751 Y281.595 E4.55873
G1 X263.571 Y281.721 E4.56286
G1 X263.498 Y281.77 E4.56451
G1 X263.257 Y281.929 E4.56994
G1 X263.237 Y281.942 E4.57039
G1 X261.775 Y282.891 E4.60318
G1 X261.737 Y282.916 E4.60404
G1 X261.171 Y283.272 E4.61661
G1 X260.9 Y283.424 E4.62246
G1 X260.411 Y283.669 E4.63275
G1 X260.343 Y283.702 E4.63417
G1 X258.791 Y284.434 E4.66645
G1 X258.748 Y284.454 E4.66734
G1 X258.12 Y284.739 E4.68031
G1 X257.886 Y284.835 E4.68507
G1 X257.684 Y284.908 E4.68911
G1 X257.594 Y284.938 E4.69089
G1 X257.268 Y285.045 E4.69735
G1 X257.239 Y285.055 E4.69792
G1 X255.652 Y285.559 E4.72925
G1 X255.608 Y285.572 E4.73011
G1 X254.919 Y285.78 E4.74365
G1 X254.609 Y285.857 E4.74966
G1 X254.063 Y285.964 E4.76012
G1 X254.001 Y285.976 E4.76131
G1 X252.353 Y286.265 E4.79278
G1 X252.311 Y286.272 E4.79358
G1 X251.625 Y286.383 E4.80666
G1 X251.357 Y286.415 E4.81173
G1 X251.121 Y286.433 E4.81618
G1 X251.034 Y286.438 E4.81782
G1 X250.767 Y286.451 E4.82285
G1 X250.739 Y286.452 E4.82338
G1 X249.015 Y286.521 E4.85583
G1 X248.972 Y286.523 E4.85664
G1 X248.253 Y286.542 E4.87017
