;FLAVOR:Marlin
;TIME:5071
;Filament used: 1.63582m
;Layer height: 0.3
;MINX:201.514
;MINY:211.563
;MINZ:0.3
;MAXX:282.914
;MAXY:292.963
;MAXZ:3.9
;Generated with Cura_SteamEngine 4.4.1
M140 S60
M105
M190 S60
M104 S200
M105
M109 S200
M82 ;absolute extrusion mode
G28 ;Home
G1 Z5.0 F6000 ;Move the platform down 15mm
;Prime the extruder
G92 E0
G1 F200 E5
G92 E0
G92 E0
G92 E0
G1 F1500 E-1
;LAYER_COUNT:13
;LAYER:0
M107
G1 F600 Z1.3
G0 F3600 X202.503 Y212.467 Z1.3
;TYPE:SKIRT
G1 F600 Z0.3
G1 F1500 E0
G1 F900 X202.894 Y212.146 E0.00952
G1 X203.331 Y211.891 E0.01903
G1 X203.802 Y211.707 E0.02855
G1 X204.296 Y211.601 E0.03805
G1 X204.633 Y211.573 E0.04441
G1 X204.954 Y211.564 E0.05045
G1 X205.044 Y211.563 E0.05214
G1 X279.053 Y211.563 E1.44429
G1 X279.751 Y211.573 E1.45743
G1 X280.254 Y211.62 E1.46693
G1 X280.744 Y211.746 E1.47645
G1 X281.208 Y211.948 E1.48596
G1 X281.634 Y212.22 E1.49547
G1 X282.012 Y212.555 E1.50497
G1 X282.332 Y212.946 E1.51448
G1 X282.587 Y213.383 E1.52399
G1 X282.77 Y213.854 E1.5335
G1 X282.877 Y214.348 E1.54301
G1 X282.904 Y214.683 E1.54933
G1 X282.913 Y215.003 E1.55535
G1 X282.914 Y215.093 E1.55704
G1 X282.914 Y289.067 E2.94854
G1 X282.905 Y289.794 E2.96221
G1 X282.859 Y290.297 E2.97171
G1 X282.734 Y290.787 E2.98123
G1 X282.533 Y291.251 E2.99074
G1 X282.262 Y291.678 E3.00025
G1 X281.927 Y292.057 E3.00977
G1 X281.537 Y292.378 E3.01927
G1 X281.101 Y292.634 E3.02878
G1 X280.63 Y292.817 E3.03828
G1 X280.136 Y292.925 E3.0478
G1 X279.795 Y292.953 E3.05423
G1 X279.474 Y292.962 E3.06027
G1 X279.384 Y292.963 E3.06196
G1 X205.38 Y292.963 E4.45402
G1 X204.682 Y292.954 E4.46715
G1 X204.178 Y292.907 E4.47667
G1 X203.688 Y292.782 E4.48619
G1 X203.224 Y292.581 E4.4957
G1 X202.798 Y292.31 E4.5052
G1 X202.419 Y291.975 E4.51471
G1 X202.098 Y291.584 E4.52423
G1 X201.843 Y291.148 E4.53373
G1 X201.659 Y290.677 E4.54324
G1 X201.552 Y290.183 E4.55275
G1 X201.524 Y289.84 E4.55922
G1 X201.515 Y289.507 E4.56549
G1 X201.514 Y289.421 E4.5671
G1 X201.514 Y215.394 E5.95959
G1 X201.523 Y214.729 E5.9721
G1 X201.57 Y214.225 E5.98163
G1 X201.696 Y213.736 E5.99112
G1 X201.897 Y213.272 E6.00064
G1 X202.168 Y212.845 E6.01015
G1 X202.503 Y212.467 E6.01965
G1 F1500 E5.01965
G1 F600 Z1.3
;MESH:neck_fastening_bottom.stl
G0 F3600 X206.799 Y216.106 Z1.3
;TYPE:WALL-INNER
G1 F600 Z0.3
G1 F1500 E6.01965
G1 F900 X206.368 Y216.447 E6.02999
G1 X206.037 Y216.884 E6.0403
G1 X205.832 Y217.395 E6.05066
G1 X205.766 Y217.939 E6.06097
G1 X205.843 Y218.483 E6.0713
G1 X206.058 Y218.988 E6.08162
G1 X206.398 Y219.42 E6.09197
G1 X206.836 Y219.75 E6.10228
G1 X207.346 Y219.955 E6.11262
G1 X207.89 Y220.021 E6.12293
G1 X208.434 Y219.944 E6.13326
G1 X208.939 Y219.729 E6.14359
G1 X209.371 Y219.39 E6.15392
G1 X209.701 Y218.951 E6.16425
G1 X209.906 Y218.443 E6.17455
G1 X209.972 Y217.897 E6.1849
G1 X209.895 Y217.354 E6.19521
G1 X209.68 Y216.848 E6.20556
G1 X209.341 Y216.417 E6.21587
G1 X208.902 Y216.085 E6.22622
G1 X208.394 Y215.882 E6.23651
G1 X207.848 Y215.814 E6.24686
G1 X207.305 Y215.894 E6.25719
G1 X206.799 Y216.106 E6.26751
G0 F3600 X207.851 Y215.977
G0 X208.821 Y216.225
G0 X228.198 Y250.658
G1 F900 X227.785 Y250.72 E6.27536
G1 X227.4 Y250.881 E6.28321
G1 X227.069 Y251.14 E6.29112
G1 X226.816 Y251.475 E6.29902
G1 X226.661 Y251.865 E6.30691
G1 X226.609 Y252.279 E6.31476
G1 X226.67 Y252.694 E6.32265
G1 X226.832 Y253.078 E6.33049
G1 X227.091 Y253.409 E6.3384
G1 X227.426 Y253.661 E6.34628
G1 X227.816 Y253.816 E6.35418
G1 X228.23 Y253.868 E6.36202
G1 X228.645 Y253.807 E6.36991
G1 X229.029 Y253.645 E6.37775
G1 X229.359 Y253.387 E6.38563
G1 X229.612 Y253.051 E6.39355
G1 X229.767 Y252.663 E6.4014
G1 X229.819 Y252.247 E6.40929
G1 X229.758 Y251.834 E6.41714
G1 X229.596 Y251.447 E6.42504
G1 X229.336 Y251.118 E6.43292
G1 X229.002 Y250.865 E6.44081
G1 X228.614 Y250.712 E6.44865
G1 X228.198 Y250.658 E6.45654
G0 F3600 X239.524 Y253.816
G1 F900 X240.019 Y254.459 E6.47181
G1 X240.661 Y254.953 E6.48704
G1 X241.411 Y255.263 E6.50231
G1 X242.214 Y255.368 E6.51754
G1 X243.017 Y255.263 E6.53278
G1 X243.767 Y254.954 E6.54803
G1 X244.41 Y254.459 E6.5633
G1 X244.903 Y253.816 E6.57854
G1 X245.214 Y253.066 E6.59381
G1 X245.319 Y252.263 E6.60905
G1 X245.214 Y251.46 E6.62428
G1 X244.903 Y250.71 E6.63955
G1 X244.41 Y250.068 E6.65478
G1 X243.767 Y249.573 E6.67004
G1 X243.017 Y249.264 E6.6853
G1 X242.214 Y249.157 E6.70054
G1 X241.411 Y249.264 E6.71578
G1 X240.661 Y249.574 E6.73104
G1 X240.019 Y250.068 E6.74628
G1 X239.525 Y250.71 E6.76152
G1 X239.215 Y251.46 E6.77678
G1 X239.108 Y252.263 E6.79202
G1 X239.215 Y253.066 E6.80726
G1 X239.524 Y253.816 E6.82252
G0 F3600 X242.198 Y264.658
G1 F900 X241.785 Y264.72 E6.83037
G1 X241.4 Y264.881 E6.83822
G1 X241.069 Y265.14 E6.84613
G1 X240.816 Y265.475 E6.85403
G1 X240.661 Y265.865 E6.86192
G1 X240.609 Y266.279 E6.86977
G1 X240.67 Y266.694 E6.87766
G1 X240.832 Y267.078 E6.8855
G1 X241.091 Y267.409 E6.89341
G1 X241.426 Y267.661 E6.90129
G1 X241.816 Y267.816 E6.90919
G1 X242.23 Y267.868 E6.91703
G1 X242.645 Y267.807 E6.92492
G1 X243.029 Y267.645 E6.93276
G1 X243.359 Y267.387 E6.94064
G1 X243.612 Y267.051 E6.94856
G1 X243.767 Y266.663 E6.95641
G1 X243.819 Y266.247 E6.9643
G1 X243.758 Y265.834 E6.97215
G1 X243.596 Y265.447 E6.98005
G1 X243.336 Y265.118 E6.98793
G1 X243.002 Y264.865 E6.99582
G1 X242.614 Y264.712 E7.00366
G1 X242.198 Y264.658 E7.01155
G0 F3600 X255.185 Y251.253
G0 X256.198 Y250.658
G1 F900 X255.785 Y250.72 E7.01941
G1 X255.4 Y250.881 E7.02726
G1 X255.069 Y251.14 E7.03516
G1 X254.816 Y251.475 E7.04306
G1 X254.661 Y251.865 E7.05095
G1 X254.609 Y252.279 E7.0588
G1 X254.67 Y252.694 E7.06669
G1 X254.832 Y253.078 E7.07453
G1 X255.091 Y253.409 E7.08244
G1 X255.426 Y253.661 E7.09032
G1 X255.816 Y253.816 E7.09822
G1 X256.23 Y253.868 E7.10607
G1 X256.645 Y253.807 E7.11396
G1 X257.029 Y253.645 E7.1218
G1 X257.359 Y253.387 E7.12968
G1 X257.612 Y253.051 E7.13759
G1 X257.767 Y252.663 E7.14545
G1 X257.819 Y252.247 E7.15333
G1 X257.758 Y251.834 E7.16119
G1 X257.596 Y251.447 E7.16908
G1 X257.336 Y251.118 E7.17697
G1 X257.002 Y250.865 E7.18485
G1 X256.614 Y250.712 E7.19269
G1 X256.198 Y250.658 E7.20058
G0 F3600 X244.204 Y239.292
G0 X243.456 Y237.529
G0 X242.198 Y236.658
G1 F900 X241.785 Y236.72 E7.20844
G1 X241.4 Y236.881 E7.21629
G1 X241.069 Y237.14 E7.2242
G1 X240.885 Y237.384 E7.22994
G1 X240.816 Y237.475 E7.23209
G1 X240.796 Y237.526 E7.23312
G1 X240.715 Y237.73 E7.23725
G1 X240.64 Y237.55 E7.23802
G1 X240.596 Y237.447 E7.23871
G1 X240.525 Y237.357 E7.24086
G1 X240.336 Y237.118 E7.2466
G1 X240.002 Y236.865 E7.25448
G1 X239.614 Y236.712 E7.26232
G1 X239.198 Y236.658 E7.27021
G1 X238.785 Y236.72 E7.27807
G1 X238.4 Y236.881 E7.28592
G1 X238.069 Y237.14 E7.29382
G1 X237.816 Y237.475 E7.30172
G1 X237.661 Y237.865 E7.30962
G1 X237.609 Y238.279 E7.31746
G1 X237.67 Y238.694 E7.32535
G1 X237.832 Y239.078 E7.33319
G1 X238.091 Y239.409 E7.3411
G1 X238.426 Y239.661 E7.34899
G1 X238.816 Y239.816 E7.35688
G1 X239.23 Y239.868 E7.36473
G1 X239.645 Y239.807 E7.37262
G1 X240.029 Y239.645 E7.38046
G1 X240.359 Y239.387 E7.38834
G1 X240.543 Y239.143 E7.39409
G1 X240.612 Y239.051 E7.39625
G1 X240.632 Y238.999 E7.3973
G1 X240.713 Y238.797 E7.40139
G1 X240.788 Y238.976 E7.40216
G1 X240.832 Y239.078 E7.40284
G1 X240.903 Y239.169 E7.40501
G1 X241.091 Y239.409 E7.41075
G1 X241.426 Y239.661 E7.41863
G1 X241.816 Y239.816 E7.42653
G1 X242.23 Y239.868 E7.43438
G1 X242.645 Y239.807 E7.44227
G1 X243.029 Y239.645 E7.45011
G1 X243.359 Y239.387 E7.45799
G1 X243.543 Y239.143 E7.46374
G1 X243.612 Y239.051 E7.4659
G1 X243.632 Y238.999 E7.46695
G1 X243.713 Y238.797 E7.47104
G1 X243.788 Y238.976 E7.47181
G1 X243.832 Y239.078 E7.47249
G1 X243.903 Y239.169 E7.47466
G1 X244.091 Y239.409 E7.4804
G1 X244.426 Y239.661 E7.48828
G1 X244.816 Y239.816 E7.49618
G1 X245.23 Y239.868 E7.50403
G1 X245.645 Y239.807 E7.51192
G1 X246.029 Y239.645 E7.51976
G1 X246.359 Y239.387 E7.52764
G1 X246.612 Y239.051 E7.53555
G1 X246.767 Y238.663 E7.54341
G1 X246.819 Y238.247 E7.55129
G1 X246.758 Y237.834 E7.55915
G1 X246.596 Y237.447 E7.56704
G1 X246.336 Y237.118 E7.57493
G1 X246.002 Y236.865 E7.58281
G1 X245.614 Y236.712 E7.59065
G1 X245.198 Y236.658 E7.59854
G1 X244.785 Y236.72 E7.6064
G1 X244.4 Y236.881 E7.61425
G1 X244.069 Y237.14 E7.62215
G1 X243.885 Y237.384 E7.6279
G1 X243.816 Y237.475 E7.63005
G1 X243.796 Y237.526 E7.63108
G1 X243.715 Y237.73 E7.63521
G1 X243.64 Y237.55 E7.63598
G1 X243.596 Y237.447 E7.63667
G1 X243.525 Y237.357 E7.63882
G1 X243.336 Y237.118 E7.64455
G1 X243.002 Y236.865 E7.65244
G1 X242.614 Y236.712 E7.66028
G1 X242.198 Y236.658 E7.66817
G0 F3600 X275.489 Y216.106
G1 F900 X275.058 Y216.447 E7.67851
G1 X274.727 Y216.884 E7.68882
G1 X274.522 Y217.395 E7.69918
G1 X274.456 Y217.939 E7.70949
G1 X274.533 Y218.483 E7.71982
G1 X274.748 Y218.988 E7.73015
G1 X275.088 Y219.42 E7.74049
G1 X275.526 Y219.75 E7.7508
G1 X276.036 Y219.955 E7.76114
G1 X276.58 Y220.021 E7.77145
G1 X277.124 Y219.944 E7.78179
G1 X277.629 Y219.729 E7.79211
G1 X278.061 Y219.39 E7.80244
G1 X278.391 Y218.951 E7.81277
G1 X278.596 Y218.443 E7.82307
G1 X278.662 Y217.897 E7.83342
G1 X278.585 Y217.354 E7.84374
G1 X278.37 Y216.848 E7.85408
G1 X278.031 Y216.417 E7.86439
G1 X277.592 Y216.085 E7.87475
G1 X277.084 Y215.882 E7.88504
G1 X276.538 Y215.814 E7.89539
G1 X275.995 Y215.894 E7.90571
G1 X275.489 Y216.106 E7.91603
G0 F3600 X274.867 Y216.967
G0 X275.489 Y284.796
G1 F900 X275.058 Y285.137 E7.92637
G1 X274.727 Y285.574 E7.93668
G1 X274.522 Y286.085 E7.94704
G1 X274.456 Y286.629 E7.95735
G1 X274.533 Y287.173 E7.96768
G1 X274.748 Y287.678 E7.978
G1 X275.088 Y288.11 E7.98835
G1 X275.526 Y288.44 E7.99866
G1 X276.036 Y288.645 E8.009
G1 X276.58 Y288.711 E8.01931
G1 X277.124 Y288.634 E8.02964
G1 X277.629 Y288.419 E8.03997
G1 X278.061 Y288.08 E8.0503
G1 X278.391 Y287.641 E8.06063
G1 X278.596 Y287.133 E8.07093
G1 X278.662 Y286.587 E8.08128
G1 X278.585 Y286.044 E8.09159
G1 X278.37 Y285.538 E8.10194
G1 X278.031 Y285.107 E8.11225
G1 X277.592 Y284.775 E8.1226
G1 X277.084 Y284.572 E8.13289
G1 X276.538 Y284.504 E8.14324
G1 X275.995 Y284.584 E8.15357
G1 X275.489 Y284.796 E8.16389
G0 F3600 X207.851 Y284.667
G0 X206.799 Y284.796
G1 F900 X206.368 Y285.137 E8.17423
G1 X206.037 Y285.574 E8.18454
G1 X205.832 Y286.085 E8.1949
G1 X205.766 Y286.629 E8.2052
G1 X205.843 Y287.173 E8.21554
G1 X206.058 Y287.678 E8.22586
G1 X206.398 Y288.11 E8.2362
G1 X206.836 Y288.44 E8.24652
G1 X207.346 Y288.645 E8.25686
G1 X207.89 Y288.711 E8.26717
G1 X208.434 Y288.634 E8.2775
G1 X208.939 Y288.419 E8.28783
G1 X209.371 Y288.08 E8.29816
G1 X209.701 Y287.641 E8.30849
G1 X209.906 Y287.133 E8.31879
G1 X209.972 Y286.587 E8.32914
G1 X209.895 Y286.044 E8.33945
G1 X209.68 Y285.538 E8.34979
G1 X209.341 Y285.107 E8.36011
G1 X208.902 Y284.775 E8.37046
G1 X208.394 Y284.572 E8.38075
G1 X207.848 Y284.504 E8.3911
G1 X207.305 Y284.584 E8.40143
G1 X206.799 Y284.796 E8.41175
G0 F3600 X206.177 Y285.657
G0 X205.314 Y289.163
G1 F900 X205.314 Y215.363 E9.79997
G1 X279.114 Y215.363 E11.18819
G1 X279.114 Y289.163 E12.5764
G1 X205.314 Y289.163 E13.96462
G0 F3600 X204.914 Y289.563
;TYPE:WALL-OUTER
G1 F900 X204.914 Y214.963 E15.36789
G1 X279.514 Y214.963 E16.77116
G1 X279.514 Y289.563 E18.17443
G1 X204.914 Y289.563 E19.57769
G0 F3600 X204.914 Y289.363
G0 X205.184 Y289.293
G0 X205.99 Y286.126
G0 X206.819 Y284.909
G0 X207.004 Y285.144
G1 F900 X206.656 Y285.419 E19.58604
G1 X206.388 Y285.773 E19.59439
G1 X206.223 Y286.185 E19.60274
G1 X206.169 Y286.625 E19.61108
G1 X206.232 Y287.065 E19.61944
G1 X206.405 Y287.473 E19.62777
G1 X206.68 Y287.822 E19.63613
G1 X207.034 Y288.089 E19.64447
G1 X207.446 Y288.254 E19.65282
G1 X207.886 Y288.308 E19.66116
G1 X208.326 Y288.245 E19.66952
G1 X208.734 Y288.072 E19.67786
G1 X209.083 Y287.798 E19.6862
G1 X209.35 Y287.443 E19.69456
G1 X209.515 Y287.032 E19.70289
G1 X209.569 Y286.591 E19.71125
G1 X209.506 Y286.152 E19.71959
G1 X209.333 Y285.743 E19.72794
G1 X209.059 Y285.395 E19.73627
G1 X208.704 Y285.127 E19.74464
G1 X208.293 Y284.963 E19.75296
G1 X207.852 Y284.908 E19.76132
G1 X207.413 Y284.972 E19.76967
G1 X207.004 Y285.144 E19.77802
G0 F3600 X206.847 Y285.268
G0 X206.662 Y285.033
G0 X227.185 Y251.253
G0 X228.242 Y250.765
G0 X228.202 Y251.062
G1 F900 X227.893 Y251.108 E19.78389
G1 X227.604 Y251.229 E19.78979
G1 X227.357 Y251.423 E19.79569
G1 X227.168 Y251.673 E19.80159
G1 X227.052 Y251.965 E19.8075
G1 X227.013 Y252.275 E19.81338
G1 X227.058 Y252.585 E19.81927
G1 X227.18 Y252.873 E19.82515
G1 X227.374 Y253.121 E19.83108
G1 X227.624 Y253.309 E19.83696
G1 X227.916 Y253.425 E19.84287
G1 X228.226 Y253.464 E19.84875
G1 X228.536 Y253.419 E19.85464
G1 X228.824 Y253.297 E19.86052
G1 X229.071 Y253.104 E19.86642
G1 X229.26 Y252.853 E19.87233
G1 X229.376 Y252.562 E19.87822
G1 X229.415 Y252.251 E19.88412
G1 X229.37 Y251.942 E19.88999
G1 X229.248 Y251.652 E19.89591
G1 X229.054 Y251.406 E19.9018
G1 X228.804 Y251.217 E19.9077
G1 X228.513 Y251.102 E19.91358
G1 X228.202 Y251.062 E19.91948
G0 F3600 X228.004 Y251.091
G0 X227.961 Y250.796
G0 X239.214 Y252.223
G0 X239.512 Y252.263
G1 F900 X239.605 Y252.962 E19.93275
G1 X239.874 Y253.614 E19.94601
G1 X240.304 Y254.174 E19.95929
G1 X240.863 Y254.604 E19.97256
G1 X241.515 Y254.873 E19.98583
G1 X242.214 Y254.965 E19.99909
G1 X242.913 Y254.873 E20.01235
G1 X243.565 Y254.604 E20.02562
G1 X244.125 Y254.174 E20.0389
G1 X244.554 Y253.614 E20.05217
G1 X244.824 Y252.962 E20.06544
G1 X244.916 Y252.263 E20.07871
G1 X244.824 Y251.564 E20.09197
G1 X244.554 Y250.912 E20.10524
G1 X244.125 Y250.353 E20.1185
G1 X243.565 Y249.923 E20.13178
G1 X242.913 Y249.654 E20.14505
G1 X242.214 Y249.561 E20.15831
G1 X241.515 Y249.654 E20.17158
G1 X240.863 Y249.923 E20.18484
G1 X240.304 Y250.353 E20.19811
G1 X239.874 Y250.912 E20.21138
G1 X239.605 Y251.564 E20.22464
G1 X239.512 Y252.263 E20.23791
G0 F3600 X239.538 Y252.461
G0 X239.239 Y252.5
G0 X242.242 Y264.765
G0 X242.202 Y265.062
G1 F900 X241.893 Y265.108 E20.24378
G1 X241.604 Y265.229 E20.24968
G1 X241.357 Y265.423 E20.25558
G1 X241.168 Y265.673 E20.26148
G1 X241.052 Y265.965 E20.26739
G1 X241.013 Y266.275 E20.27327
G1 X241.058 Y266.585 E20.27916
G1 X241.18 Y266.873 E20.28504
G1 X241.374 Y267.121 E20.29097
G1 X241.624 Y267.309 E20.29685
G1 X241.916 Y267.425 E20.30276
G1 X242.226 Y267.464 E20.30864
G1 X242.536 Y267.419 E20.31453
G1 X242.824 Y267.297 E20.32041
G1 X243.071 Y267.104 E20.32631
G1 X243.26 Y266.853 E20.33222
G1 X243.376 Y266.562 E20.33811
G1 X243.415 Y266.251 E20.34401
G1 X243.37 Y265.942 E20.34988
G1 X243.248 Y265.652 E20.3558
G1 X243.054 Y265.406 E20.36169
G1 X242.804 Y265.217 E20.36759
G1 X242.513 Y265.102 E20.37348
G1 X242.202 Y265.062 E20.37937
G0 F3600 X242.004 Y265.091
G0 X241.961 Y264.796
G0 X255.185 Y251.253
G0 X256.242 Y250.765
G0 X256.202 Y251.062
G1 F900 X255.893 Y251.108 E20.38525
G1 X255.604 Y251.229 E20.39114
G1 X255.357 Y251.423 E20.39705
G1 X255.168 Y251.673 E20.40295
G1 X255.052 Y251.965 E20.40886
G1 X255.013 Y252.275 E20.41473
G1 X255.058 Y252.585 E20.42063
G1 X255.18 Y252.873 E20.42651
G1 X255.374 Y253.121 E20.43243
G1 X255.624 Y253.309 E20.43832
G1 X255.916 Y253.425 E20.44423
G1 X256.226 Y253.464 E20.4501
G1 X256.536 Y253.419 E20.456
G1 X256.824 Y253.297 E20.46188
G1 X257.071 Y253.104 E20.46778
G1 X257.26 Y252.853 E20.47369
G1 X257.376 Y252.562 E20.47958
G1 X257.415 Y252.251 E20.48548
G1 X257.37 Y251.942 E20.49135
G1 X257.248 Y251.652 E20.49727
G1 X257.054 Y251.406 E20.50316
G1 X256.804 Y251.217 E20.50906
G1 X256.513 Y251.102 E20.51494
G1 X256.202 Y251.062 E20.52084
G0 F3600 X256.004 Y251.091
G0 X255.961 Y250.796
G0 X246.222 Y237.235
G0 X245.242 Y236.765
G0 X245.202 Y237.062
G1 F900 X244.893 Y237.108 E20.52672
G1 X244.604 Y237.229 E20.53261
G1 X244.357 Y237.423 E20.53852
G1 X244.168 Y237.673 E20.54441
G1 X244.052 Y237.965 E20.55032
G1 X244.013 Y238.275 E20.5562
G1 X244.058 Y238.585 E20.56209
G1 X244.18 Y238.873 E20.56798
G1 X244.374 Y239.121 E20.5739
G1 X244.624 Y239.309 E20.57978
G1 X244.916 Y239.425 E20.58569
G1 X245.226 Y239.464 E20.59157
G1 X245.536 Y239.419 E20.59746
G1 X245.824 Y239.297 E20.60335
G1 X246.071 Y239.104 E20.60924
G1 X246.26 Y238.853 E20.61515
