;FLAVOR:Marlin
;TIME:5003
;Filament used: 1.62615m
;Layer height: 0.3
;MINX:205.843
;MINY:209.97
;MINZ:0.3
;MAXX:287.243
;MAXY:291.37
;MAXZ:3.9
;Generated with Cura_SteamEngine 4.4.1
M140 S60
M105
M190 S60
M104 S200
M105
M109 S200
M82 ;absolute extrusion mode
G28 ;Home
G1 Z5.0 F6000 ;Move the platform down 15mm
;Prime the extruder
G92 E0
G1 F200 E5
G92 E0
G92 E0
G92 E0
G1 F1500 E-1
;LAYER_COUNT:13
;LAYER:0
M107
G1 F600 Z1.3
G0 F3600 X206.832 Y210.874 Z1.3
;TYPE:SKIRT
G1 F600 Z0.3
G1 F1500 E0
G1 F900 X207.223 Y210.553 E0.00952
G1 X207.66 Y210.298 E0.01903
G1 X208.131 Y210.114 E0.02855
G1 X208.625 Y210.008 E0.03805
G1 X208.962 Y209.98 E0.04441
G1 X209.283 Y209.971 E0.05045
G1 X209.373 Y209.97 E0.05214
G1 X283.382 Y209.97 E1.44429
G1 X284.08 Y209.98 E1.45743
G1 X284.583 Y210.027 E1.46693
G1 X285.073 Y210.153 E1.47645
G1 X285.537 Y210.355 E1.48596
G1 X285.963 Y210.627 E1.49547
G1 X286.341 Y210.962 E1.50497
G1 X286.661 Y211.353 E1.51448
G1 X286.916 Y211.79 E1.52399
G1 X287.099 Y212.261 E1.5335
G1 X287.206 Y212.755 E1.54301
G1 X287.233 Y213.09 E1.54933
G1 X287.242 Y213.41 E1.55535
G1 X287.243 Y213.5 E1.55704
G1 X287.243 Y287.474 E2.94854
G1 X287.234 Y288.201 E2.96221
G1 X287.188 Y288.704 E2.97171
G1 X287.063 Y289.194 E2.98123
G1 X286.862 Y289.658 E2.99074
G1 X286.591 Y290.085 E3.00025
G1 X286.256 Y290.464 E3.00977
G1 X285.866 Y290.785 E3.01927
G1 X285.43 Y291.041 E3.02878
G1 X284.959 Y291.224 E3.03828
G1 X284.465 Y291.332 E3.0478
G1 X284.124 Y291.36 E3.05423
G1 X283.803 Y291.369 E3.06027
G1 X283.713 Y291.37 E3.06196
G1 X209.709 Y291.37 E4.45402
G1 X209.011 Y291.361 E4.46715
G1 X208.507 Y291.314 E4.47667
G1 X208.017 Y291.189 E4.48619
G1 X207.553 Y290.988 E4.4957
G1 X207.127 Y290.717 E4.5052
G1 X206.748 Y290.382 E4.51471
G1 X206.427 Y289.991 E4.52423
G1 X206.172 Y289.555 E4.53373
G1 X205.988 Y289.084 E4.54324
G1 X205.881 Y288.59 E4.55275
G1 X205.853 Y288.247 E4.55922
G1 X205.844 Y287.914 E4.56549
G1 X205.843 Y287.828 E4.5671
G1 X205.843 Y213.801 E5.95959
G1 X205.852 Y213.136 E5.9721
G1 X205.899 Y212.632 E5.98163
G1 X206.025 Y212.143 E5.99112
G1 X206.226 Y211.679 E6.00064
G1 X206.497 Y211.252 E6.01015
G1 X206.832 Y210.874 E6.01965
G1 F1500 E5.01965
G1 F600 Z1.3
;MESH:owl_body_bottom.stl
G0 F3600 X214.031 Y217.358 Z1.3
;TYPE:WALL-INNER
G1 F600 Z0.3
G1 F1500 E6.01965
G1 F900 X214.235 Y216.848 E6.02998
G1 X214.302 Y216.304 E6.04029
G1 X214.224 Y215.761 E6.05061
G1 X214.01 Y215.256 E6.06093
G1 X213.671 Y214.823 E6.07127
G1 X213.231 Y214.493 E6.08162
G1 X212.723 Y214.288 E6.09192
G1 X212.177 Y214.222 E6.10227
G1 X211.634 Y214.299 E6.11259
G1 X211.128 Y214.514 E6.12293
G1 X210.697 Y214.853 E6.13324
G1 X210.366 Y215.292 E6.14358
G1 X210.161 Y215.802 E6.15392
G1 X210.094 Y216.346 E6.16423
G1 X210.172 Y216.889 E6.17455
G1 X210.387 Y217.395 E6.18489
G1 X210.727 Y217.827 E6.19523
G1 X211.165 Y218.157 E6.20555
G1 X211.675 Y218.362 E6.21589
G1 X212.219 Y218.428 E6.2262
G1 X212.763 Y218.351 E6.23653
G1 X213.268 Y218.136 E6.24686
G1 X213.7 Y217.797 E6.25719
G1 X214.031 Y217.358 E6.26753
G0 F3600 X214.118 Y217.407
G0 X214.341 Y284.994
G0 X214.118 Y286.097
G0 X214.031 Y286.048
G1 F900 X214.235 Y285.538 E6.27786
G1 X214.302 Y284.994 E6.28817
G1 X214.224 Y284.451 E6.29849
G1 X214.01 Y283.946 E6.30881
G1 X213.671 Y283.513 E6.31915
G1 X213.231 Y283.183 E6.3295
G1 X212.723 Y282.978 E6.3398
G1 X212.177 Y282.912 E6.35015
G1 X211.634 Y282.989 E6.36046
G1 X211.128 Y283.204 E6.37081
G1 X210.697 Y283.543 E6.38112
G1 X210.366 Y283.982 E6.39146
G1 X210.161 Y284.492 E6.4018
G1 X210.094 Y285.036 E6.41211
G1 X210.172 Y285.579 E6.42243
G1 X210.387 Y286.085 E6.43277
G1 X210.727 Y286.517 E6.44311
G1 X211.165 Y286.847 E6.45343
G1 X211.675 Y287.052 E6.46377
G1 X212.219 Y287.118 E6.47408
G1 X212.763 Y287.041 E6.48441
G1 X213.268 Y286.826 E6.49474
G1 X213.7 Y286.487 E6.50507
G1 X214.031 Y286.048 E6.51541
G0 F3600 X214.118 Y286.097
G0 X213.288 Y286.86
G0 X209.713 Y287.5
G0 X209.643 Y287.57
G1 F900 X209.643 Y213.77 E7.90363
G1 X283.443 Y213.77 E9.29185
G1 X283.443 Y287.57 E10.68006
G1 X209.643 Y287.57 E12.06828
G0 F3600 X209.713 Y287.5
G0 X280.909 Y287.158
G0 X281.978 Y286.86
G0 X282.808 Y286.097
G0 X282.721 Y286.048
G1 F900 X282.925 Y285.538 E12.07862
G1 X282.992 Y284.994 E12.08893
G1 X282.914 Y284.451 E12.09925
G1 X282.7 Y283.946 E12.10956
G1 X282.361 Y283.513 E12.11991
G1 X281.921 Y283.183 E12.13025
G1 X281.413 Y282.978 E12.14056
G1 X280.867 Y282.912 E12.1509
G1 X280.324 Y282.989 E12.16122
G1 X279.818 Y283.204 E12.17156
G1 X279.387 Y283.543 E12.18188
G1 X279.056 Y283.982 E12.19222
G1 X278.851 Y284.492 E12.20256
G1 X278.784 Y285.036 E12.21287
G1 X278.862 Y285.579 E12.22319
G1 X279.077 Y286.085 E12.23353
G1 X279.417 Y286.517 E12.24387
G1 X279.855 Y286.847 E12.25418
G1 X280.365 Y287.052 E12.26452
G1 X280.909 Y287.118 E12.27483
G1 X281.453 Y287.041 E12.28517
G1 X281.958 Y286.826 E12.29549
G1 X282.39 Y286.487 E12.30582
G1 X282.721 Y286.048 E12.31616
G0 F3600 X282.808 Y286.097
G0 X283 Y285.235
G0 X282.808 Y217.407
G0 X282.721 Y217.358
G1 F900 X282.925 Y216.848 E12.3265
G1 X282.992 Y216.304 E12.33681
G1 X282.914 Y215.761 E12.34712
G1 X282.7 Y215.256 E12.35744
G1 X282.361 Y214.823 E12.36779
G1 X281.921 Y214.493 E12.37813
G1 X281.413 Y214.288 E12.38844
G1 X280.867 Y214.222 E12.39878
G1 X280.324 Y214.299 E12.4091
G1 X279.818 Y214.514 E12.41944
G1 X279.387 Y214.853 E12.42975
G1 X279.056 Y215.292 E12.4401
G1 X278.851 Y215.802 E12.45044
G1 X278.784 Y216.346 E12.46075
G1 X278.862 Y216.889 E12.47106
G1 X279.077 Y217.395 E12.48141
G1 X279.417 Y217.827 E12.49175
G1 X279.855 Y218.157 E12.50206
G1 X280.365 Y218.362 E12.5124
G1 X280.909 Y218.428 E12.52271
G1 X281.453 Y218.351 E12.53305
G1 X281.958 Y218.136 E12.54337
G1 X282.39 Y217.797 E12.5537
G1 X282.721 Y217.358 E12.56404
G0 F3600 X282.808 Y217.407
G0 X281.978 Y218.17
G0 X280.909 Y218.468
G0 X279.836 Y218.191
G0 X279.032 Y217.498
G0 X279.424 Y217.19
;TYPE:WALL-OUTER
G1 F900 X279.699 Y217.539 E12.5724
G1 X280.053 Y217.806 E12.58074
G1 X280.465 Y217.971 E12.58909
G1 X280.905 Y218.025 E12.59743
G1 X281.345 Y217.962 E12.60579
G1 X281.753 Y217.789 E12.61412
G1 X282.102 Y217.515 E12.62247
G1 X282.369 Y217.16 E12.63083
G1 X282.534 Y216.748 E12.63917
G1 X282.588 Y216.308 E12.64751
G1 X282.525 Y215.869 E12.65586
G1 X282.352 Y215.461 E12.66419
G1 X282.078 Y215.111 E12.67255
G1 X281.723 Y214.844 E12.68091
G1 X281.312 Y214.679 E12.68924
G1 X280.871 Y214.625 E12.6976
G1 X280.432 Y214.688 E12.70594
G1 X280.023 Y214.861 E12.71429
G1 X279.675 Y215.135 E12.72262
G1 X279.407 Y215.49 E12.73099
G1 X279.242 Y215.902 E12.73934
G1 X279.188 Y216.342 E12.74768
G1 X279.251 Y216.781 E12.75602
G1 X279.424 Y217.19 E12.76437
G0 F3600 X279.547 Y217.347
G0 X279.155 Y217.654
G0 X278.745 Y285.036
G0 X279.032 Y286.188
G0 X279.424 Y285.88
G1 F900 X279.699 Y286.229 E12.77273
G1 X280.053 Y286.496 E12.78107
G1 X280.465 Y286.661 E12.78942
G1 X280.905 Y286.715 E12.79776
G1 X281.345 Y286.652 E12.80612
G1 X281.753 Y286.479 E12.81446
G1 X282.102 Y286.205 E12.8228
G1 X282.369 Y285.85 E12.83116
G1 X282.534 Y285.438 E12.83951
G1 X282.588 Y284.998 E12.84785
G1 X282.525 Y284.559 E12.85619
G1 X282.352 Y284.151 E12.86453
G1 X282.078 Y283.801 E12.87289
G1 X281.723 Y283.534 E12.88124
G1 X281.312 Y283.369 E12.88957
G1 X280.871 Y283.315 E12.89793
G1 X280.432 Y283.378 E12.90627
G1 X280.023 Y283.551 E12.91463
G1 X279.675 Y283.825 E12.92296
G1 X279.407 Y284.18 E12.93133
G1 X279.242 Y284.592 E12.93967
G1 X279.188 Y285.032 E12.94801
G1 X279.251 Y285.471 E12.95635
G1 X279.424 Y285.88 E12.96471
G0 F3600 X279.547 Y286.037
G0 X279.155 Y286.344
G0 X212.219 Y287.158
G0 X211.146 Y286.881
G0 X210.342 Y286.188
G0 X210.734 Y285.88
G1 F900 X211.009 Y286.229 E12.97307
G1 X211.363 Y286.496 E12.98141
G1 X211.775 Y286.661 E12.98976
G1 X212.215 Y286.715 E12.99809
G1 X212.655 Y286.652 E13.00645
G1 X213.063 Y286.479 E13.01479
G1 X213.412 Y286.205 E13.02314
G1 X213.679 Y285.85 E13.03149
G1 X213.844 Y285.438 E13.03984
G1 X213.898 Y284.998 E13.04818
G1 X213.835 Y284.559 E13.05652
G1 X213.662 Y284.151 E13.06486
G1 X213.388 Y283.801 E13.07322
G1 X213.033 Y283.534 E13.08158
G1 X212.622 Y283.369 E13.08991
G1 X212.181 Y283.315 E13.09826
G1 X211.742 Y283.378 E13.10661
G1 X211.333 Y283.551 E13.11496
G1 X210.985 Y283.825 E13.12329
G1 X210.717 Y284.18 E13.13166
G1 X210.552 Y284.592 E13.14001
G1 X210.498 Y285.032 E13.14835
G1 X210.561 Y285.471 E13.15669
G1 X210.734 Y285.88 E13.16504
G0 F3600 X210.857 Y286.037
G0 X210.465 Y286.344
G0 X209.713 Y287.5
G0 X209.243 Y287.97
G1 F900 X209.243 Y213.37 E14.56831
G1 X283.843 Y213.37 E15.97158
G1 X283.843 Y287.97 E17.37484
G1 X209.243 Y287.97 E18.77811
G0 F3600 X209.243 Y287.77
G0 X209.713 Y287.5
G0 X210.342 Y217.498
G0 X210.734 Y217.19
G1 F900 X211.009 Y217.539 E18.78647
G1 X211.363 Y217.806 E18.79481
G1 X211.775 Y217.971 E18.80316
G1 X212.215 Y218.025 E18.8115
G1 X212.655 Y217.962 E18.81986
G1 X213.063 Y217.789 E18.82819
G1 X213.412 Y217.515 E18.83654
G1 X213.679 Y217.16 E18.8449
G1 X213.844 Y216.748 E18.85324
G1 X213.898 Y216.308 E18.86158
G1 X213.835 Y215.869 E18.86993
G1 X213.662 Y215.461 E18.87826
G1 X213.388 Y215.111 E18.88662
G1 X213.033 Y214.844 E18.89498
G1 X212.622 Y214.679 E18.90331
G1 X212.181 Y214.625 E18.91167
G1 X211.742 Y214.688 E18.92001
G1 X211.333 Y214.861 E18.92836
G1 X210.985 Y215.135 E18.93669
G1 X210.717 Y215.49 E18.94506
G1 X210.552 Y215.902 E18.95341
G1 X210.498 Y216.342 E18.96175
G1 X210.561 Y216.781 E18.97009
G1 X210.734 Y217.19 E18.97844
G0 F3600 X210.857 Y217.347
G0 X210.048 Y217.596
;TYPE:SKIN
G1 F900 X210.452 Y218.108 E18.99071
G1 X210.972 Y218.5 E19.00296
G1 X211.577 Y218.743 E19.01523
G1 X212.223 Y218.822 E19.02747
G1 X212.868 Y218.73 E19.03972
G1 X213.469 Y218.475 E19.052
G1 X213.981 Y218.072 E19.06426
G1 X214.374 Y217.551 E19.07654
G1 X214.616 Y216.946 E19.08879
G1 X214.696 Y216.3 E19.10104
G1 X214.603 Y215.656 E19.11328
G1 X214.349 Y215.057 E19.12552
G1 X213.946 Y214.542 E19.13782
G1 X213.437 Y214.16 E19.14979
G1 X279.652 Y214.16 E20.39533
G1 X279.617 Y214.175 E20.39605
G1 X279.106 Y214.578 E20.40829
G1 X278.713 Y215.099 E20.42056
G1 X278.47 Y215.704 E20.43283
G1 X278.39 Y216.35 E20.44507
G1 X278.483 Y216.994 E20.45731
G1 X278.738 Y217.596 E20.46961
G1 X279.142 Y218.108 E20.48188
G1 X279.662 Y218.5 E20.49413
G1 X280.267 Y218.743 E20.50639
G1 X280.913 Y218.822 E20.51863
G1 X281.558 Y218.73 E20.53089
G1 X282.159 Y218.475 E20.54317
G1 X282.671 Y218.072 E20.55543
G1 X283.053 Y217.566 E20.56735
G1 X283.053 Y283.78 E21.81287
G1 X283.039 Y283.747 E21.81355
G1 X282.636 Y283.232 E21.82585
G1 X282.114 Y282.84 E21.83813
G1 X281.511 Y282.597 E21.85036
G1 X280.863 Y282.518 E21.86264
G1 X280.219 Y282.61 E21.87488
G1 X279.617 Y282.865 E21.88717
G1 X279.106 Y283.268 E21.89941
G1 X278.713 Y283.789 E21.91169
G1 X278.47 Y284.394 E21.92395
G1 X278.39 Y285.04 E21.9362
G1 X278.483 Y285.684 E21.94844
G1 X278.738 Y286.286 E21.96074
G1 X279.142 Y286.798 E21.97301
G1 X279.649 Y287.18 E21.98495
G1 X213.434 Y287.18 E23.23049
G1 X213.469 Y287.165 E23.2312
G1 X213.981 Y286.762 E23.24346
G1 X214.374 Y286.241 E23.25574
G1 X214.616 Y285.636 E23.26799
G1 X214.696 Y284.99 E23.28024
G1 X214.603 Y284.346 E23.29248
G1 X214.349 Y283.747 E23.30472
G1 X213.946 Y283.232 E23.31702
G1 X213.424 Y282.84 E23.3293
G1 X212.821 Y282.597 E23.34153
G1 X212.173 Y282.518 E23.3538
G1 X211.529 Y282.61 E23.36604
G1 X210.927 Y282.865 E23.37834
G1 X210.416 Y283.268 E23.39058
G1 X210.033 Y283.776 E23.40255
G1 X210.033 Y217.561 E24.64809
G1 X210.048 Y217.596 E24.64881
G0 F3600 X210.033 Y215.086
G1 F900 X210.033 Y214.16 E24.66622
G1 X210.962 Y214.16 E24.6837
G1 X210.927 Y214.175 E24.68442
G1 X210.416 Y214.578 E24.69666
G1 X210.033 Y215.086 E24.70862
G0 F3600 X210.033 Y286.251
G1 F900 X210.048 Y286.286 E24.70934
G1 X210.452 Y286.798 E24.72161
G1 X210.959 Y287.18 E24.73355
G1 X210.033 Y287.18 E24.75097
G1 X210.033 Y286.251 E24.76844
G0 F3600 X211.146 Y286.881
G0 X211.978 Y287.127
G0 X282.124 Y287.18
G1 F900 X282.159 Y287.165 E24.76916
G1 X282.671 Y286.762 E24.78142
G1 X283.053 Y286.256 E24.79334
G1 X283.053 Y287.18 E24.81072
G1 X282.124 Y287.18 E24.8282
G0 F3600 X282.755 Y286.067
G0 X283.031 Y284.994
G0 X283.031 Y216.304
G0 X282.127 Y214.16
G1 F900 X283.053 Y214.16 E24.84562
G1 X283.053 Y215.09 E24.86311
G1 X283.039 Y215.057 E24.86379
G1 X282.636 Y214.542 E24.87609
G1 X282.127 Y214.16 E24.88806
G0 F3600 X282.872 Y214.424
G1 F900 X282.787 Y214.339 E24.89032
G0 F3600 X280.867 Y214.183
G0 X278.959 Y214.471
G1 F900 X278.828 Y214.34 E24.8938
G0 F3600 X278.716 Y214.794
G1 F900 X278.262 Y214.34 E24.90588
G0 F3600 X277.697 Y214.34
G1 F900 X278.5 Y215.143 E24.92724
G0 F3600 X278.339 Y215.548
G1 F900 X277.131 Y214.34 E24.95938
G0 F3600 X276.565 Y214.34
G1 F900 X278.248 Y216.023 E25.00415
G0 F3600 X278.241 Y216.581
G1 F900 X276 Y214.34 E25.06376
G0 F3600 X275.434 Y214.34
G1 F900 X278.432 Y217.338 E25.14352
G1 X278.502 Y217.408
G0 F3600 X279.872 Y218.778
G1 F900 X282.873 Y221.779 E25.22335
G0 F3600 X282.873 Y222.344
G1 F900 X274.868 Y214.34 E25.43629
G0 F3600 X274.302 Y214.34
G1 F900 X282.873 Y222.91 E25.66428
G0 F3600 X282.873 Y223.476
G1 F900 X273.737 Y214.34 E25.90732
G0 F3600 X273.171 Y214.34
G1 F900 X282.873 Y224.041 E26.1654
G0 F3600 X282.873 Y224.607
G1 F900 X272.605 Y214.34 E26.43854
G0 F3600 X272.04 Y214.34
G1 F900 X282.873 Y225.173 E26.72672
G0 F3600 X282.873 Y225.738
G1 F900 X271.474 Y214.34 E27.02994
G0 F3600 X270.908 Y214.34
G1 F900 X282.873 Y226.304 E27.34822
G0 F3600 X282.873 Y226.87
G1 F900 X270.343 Y214.34 E27.68155
G0 F3600 X269.777 Y214.34
G1 F900 X282.873 Y227.435 E28.02992
G0 F3600 X282.873 Y228.001
G1 F900 X269.211 Y214.34 E28.39334
G0 F3600 X268.646 Y214.34
G1 F900 X282.873 Y228.567 E28.77181
G0 F3600 X282.873 Y229.133
G1 F900 X268.08 Y214.34 E29.16534
G0 F3600 X267.514 Y214.34
G1 F900 X282.873 Y229.698 E29.57391
G0 F3600 X282.873 Y230.264
G1 F900 X266.949 Y214.34 E29.99752
G0 F3600 X266.383 Y214.34
G1 F900 X282.873 Y230.83 E30.43619
G0 F3600 X282.873 Y231.395
G1 F900 X265.817 Y214.34 E30.8899
G0 F3600 X265.252 Y214.34
G1 F900 X282.873 Y231.961 E31.35866
G0 F3600 X282.873 Y232.527
G1 F900 X264.686 Y214.34 E31.84247
G0 F3600 X264.12 Y214.34
G1 F900 X282.873 Y233.092 E32.34133
G0 F3600 X282.873 Y233.658
G1 F900 X263.554 Y214.34 E32.85524
G0 F3600 X262.989 Y214.34
G1 F900 X282.873 Y234.224 E33.3842
G0 F3600 X282.873 Y234.789
G1 F900 X262.423 Y214.34 E33.9282
G0 F3600 X261.857 Y214.34
G1 F900 X282.873 Y235.355 E34.48725
G0 F3600 X282.873 Y235.921
G1 F900 X261.292 Y214.34 E35.06136
G0 F3600 X260.726 Y214.34
G1 F900 X282.873 Y236.486 E35.6505
G0 F3600 X282.873 Y237.052
G1 F900 X260.16 Y214.34 E36.2547
G0 F3600 X259.595 Y214.34
G1 F900 X282.873 Y237.618 E36.87395
G0 F3600 X282.873 Y238.183
G1 F900 X259.029 Y214.34 E37.50823
G0 F3600 X258.463 Y214.34
G1 F900 X282.873 Y238.749 E38.15758
G0 F3600 X282.873 Y239.315
G1 F900 X257.898 Y214.34 E38.82197
G0 F3600 X257.332 Y214.34
G1 F900 X282.873 Y239.881 E39.50141
G0 F3600 X282.873 Y240.446
G1 F900 X256.766 Y214.34 E40.1959
G0 F3600 X256.201 Y214.34
G1 F900 X282.873 Y241.012 E40.90543
G0 F3600 X282.873 Y241.578
G1 F900 X255.635 Y214.34 E41.63002
G0 F3600 X255.069 Y214.34
G1 F900 X282.873 Y242.143 E42.36966
G0 F3600 X282.873 Y242.709
G1 F900 X254.503 Y214.34 E43.12435
G0 F3600 X253.938 Y214.34
G1 F900 X282.873 Y243.275 E43.89408
G0 F3600 X282.873 Y243.84
G1 F900 X253.372 Y214.34 E44.67886
G0 F3600 X252.806 Y214.34
G1 F900 X282.873 Y244.406 E45.47869
G0 F3600 X282.873 Y244.972
G1 F900 X252.241 Y214.34 E46.29357
G0 F3600 X251.675 Y214.34
G1 F900 X282.873 Y245.537 E47.12349
G0 F3600 X282.873 Y246.103
G1 F900 X251.109 Y214.34 E47.96846
G0 F3600 X250.544 Y214.34
G1 F900 X282.873 Y246.669 E48.82848
G0 F3600 X282.873 Y247.234
G1 F900 X249.978 Y214.34 E49.70355
G0 F3600 X249.412 Y214.34
G1 F900 X282.873 Y247.8 E50.59367
G0 F3600 X282.873 Y248.366
G1 F900 X248.847 Y214.34 E51.49883
G0 F3600 X248.281 Y214.34
G1 F900 X282.873 Y248.931 E52.41904
G0 F3600 X282.873 Y249.497
G1 F900 X247.715 Y214.34 E53.35431
G0 F3600 X247.15 Y214.34
G1 F900 X282.873 Y250.063 E54.30462
G0 F3600 X282.873 Y250.629
G1 F900 X246.584 Y214.34 E55.26998
